;FLAVOR:Marlin
;TIME:443
;Filament used: 0.124502m
;Layer height: 0.2
;MINX:95.511
;MINY:95.545
;MINZ:0.2
;MAXX:124.488
;MAXY:124.455
;MAXZ:12
;Generated with Cura_SteamEngine 4.10.0
M140 S50
M105
M190 S50
M104 S200
M105
M109 S200
M82 ;absolute extrusion mode
; Ender 3 Custom Start G-code
G92 E0 ; Reset Extruder
G28 ; Home all axes
G1 Z2.0 F3000 ; Move Z Axis up little to prevent scratching of Heat Bed
G1 X0.1 Y20 Z0.3 F5000.0 ; Move to start position
G1 X0.1 Y200.0 Z0.3 F1500.0 E15 ; Draw the first line
G1 X0.4 Y200.0 Z0.3 F5000.0 ; Move to side a little
G1 X0.4 Y20 Z0.3 F1500.0 E30 ; Draw the second line
G92 E0 ; Reset Extruder
G1 Z2.0 F3000 ; Move Z Axis up little to prevent scratching of Heat Bed
G1 X5 Y20 Z0.3 F5000.0 ; Move over to prevent blob squish
G92 E0
G92 E0
G1 F2700 E-5
;LAYER_COUNT:60
;LAYER:0
M107
G0 F6000 X100.007 Y99.509 Z0.2
;TYPE:SKIRT
G1 F2700 E0
G1 F1200 X100.181 Y99.346 E0.00793
G1 X100.798 Y98.809 E0.03514
G1 X100.999 Y98.647 E0.04372
G1 X101.59 Y98.203 E0.06831
G1 X101.757 Y98.086 E0.07509
G1 X102.763 Y97.459 E0.11452
G1 X103.286 Y97.171 E0.13437
G1 X104.471 Y96.608 E0.17801
G1 X104.716 Y96.509 E0.1868
G1 X105.626 Y96.187 E0.2189
G1 X105.875 Y96.111 E0.22756
G1 X106.472 Y95.947 E0.24815
G1 X106.705 Y95.89 E0.25613
G1 X107.896 Y95.667 E0.29643
G1 X108.126 Y95.637 E0.30415
G1 X109.061 Y95.556 E0.33536
G1 X109.561 Y95.545 E0.352
G1 X110.509 Y95.546 E0.38353
G1 X111.446 Y95.587 E0.41472
G1 X112.053 Y95.657 E0.43505
G1 X112.144 Y95.67 E0.4381
G1 X112.828 Y95.789 E0.46119
G1 X113.078 Y95.841 E0.46969
G1 X113.9 Y96.046 E0.49786
G1 X114.145 Y96.117 E0.50635
G1 X114.856 Y96.349 E0.53122
G1 X115.097 Y96.437 E0.53976
G1 X115.898 Y96.766 E0.56856
G1 X116.132 Y96.873 E0.57712
G1 X116.841 Y97.229 E0.6035
G1 X117.062 Y97.35 E0.61188
G1 X117.691 Y97.722 E0.63619
G1 X117.884 Y97.845 E0.6438
G1 X118.481 Y98.254 E0.66787
G1 X118.654 Y98.381 E0.67501
G1 X119.225 Y98.829 E0.69915
G1 X119.445 Y99.014 E0.70871
G1 X120.122 Y99.633 E0.73922
G1 X120.303 Y99.813 E0.74771
G1 X120.835 Y100.382 E0.77362
G1 X120.999 Y100.57 E0.78191
G1 X121.335 Y100.973 E0.79937
G1 X121.392 Y101.045 E0.80242
G1 X121.675 Y101.419 E0.81802
G1 X121.817 Y101.615 E0.82607
G1 X122.345 Y102.415 E0.85795
G1 X122.496 Y102.667 E0.86772
G1 X122.907 Y103.418 E0.8962
G1 X123.025 Y103.655 E0.905
G1 X123.34 Y104.346 E0.93026
G1 X123.437 Y104.58 E0.93868
G1 X123.716 Y105.331 E0.96533
G1 X123.775 Y105.509 E0.97157
G1 X124.082 Y106.628 E1.01016
G1 X124.211 Y107.22 E1.03031
G1 X124.419 Y108.581 E1.07611
G1 X124.442 Y108.838 E1.08469
G1 X124.485 Y109.699 E1.11336
G1 X124.488 Y109.974 E1.12251
G1 X124.471 Y110.715 E1.14716
G1 X124.458 Y110.945 E1.15482
G1 X124.374 Y111.822 E1.18413
G1 X124.334 Y112.113 E1.19389
G1 X124.327 Y112.112 E1.19413
G1 X124.104 Y113.305 E1.2345
G1 X124.003 Y113.708 E1.24831
G1 X123.731 Y114.624 E1.2801
G1 X123.654 Y114.847 E1.28794
G1 X123.342 Y115.647 E1.3165
G1 X123.221 Y115.925 E1.32659
G1 X122.812 Y116.766 E1.35769
G1 X122.692 Y116.988 E1.36608
G1 X122.302 Y117.652 E1.3917
G1 X122.021 Y118.09 E1.40901
G1 X121.326 Y119.021 E1.44765
G1 X120.931 Y119.496 E1.46819
G1 X119.993 Y120.491 E1.51368
G1 X119.819 Y120.654 E1.52161
G1 X119.202 Y121.191 E1.54881
G1 X119.001 Y121.353 E1.5574
G1 X118.439 Y121.776 E1.58079
G1 X118.276 Y121.891 E1.58743
G1 X117.251 Y122.533 E1.62765
G1 X116.722 Y122.825 E1.64775
G1 X115.477 Y123.414 E1.69356
G1 X115.236 Y123.51 E1.70219
G1 X114.379 Y123.811 E1.7324
G1 X114.127 Y123.888 E1.74116
G1 X113.515 Y124.056 E1.76227
G1 X113.285 Y124.112 E1.77014
G1 X112.058 Y124.338 E1.81164
G1 X111.812 Y124.369 E1.81989
G1 X110.425 Y124.455 E1.86611
G1 X109.494 Y124.454 E1.89707
G1 X108.557 Y124.413 E1.92827
G1 X107.628 Y124.293 E1.95942
G1 X107.374 Y124.249 E1.968
G1 X106.482 Y124.056 E1.99835
G1 X106.236 Y123.992 E2.00681
G1 X105.671 Y123.828 E2.02637
G1 X105.246 Y123.687 E2.04127
G1 X105.054 Y123.619 E2.04804
G1 X104.591 Y123.443 E2.06452
G1 X104.118 Y123.241 E2.08162
G1 X103.883 Y123.134 E2.09021
G1 X103.223 Y122.807 E2.11471
G1 X103.03 Y122.703 E2.122
G1 X102.361 Y122.311 E2.14779
G1 X102.14 Y122.171 E2.15649
G1 X101.509 Y121.74 E2.18191
G1 X101.335 Y121.612 E2.18909
G1 X100.758 Y121.157 E2.21353
G1 X100.54 Y120.973 E2.22302
G1 X100.122 Y120.602 E2.24161
G1 X99.665 Y120.155 E2.26287
G1 X99.475 Y119.958 E2.27197
G1 X98.897 Y119.309 E2.30088
G1 X98.735 Y119.112 E2.30936
G1 X98.28 Y118.519 E2.33422
G1 X98.13 Y118.309 E2.34281
G1 X97.628 Y117.541 E2.37332
G1 X97.481 Y117.294 E2.38288
G1 X97.062 Y116.521 E2.41213
G1 X96.945 Y116.283 E2.42095
G1 X96.658 Y115.648 E2.44413
G1 X96.565 Y115.424 E2.45219
G1 X96.271 Y114.633 E2.48026
G1 X96.211 Y114.45 E2.48666
G1 X95.913 Y113.349 E2.5246
G1 X95.786 Y112.762 E2.54458
G1 X95.583 Y111.436 E2.58919
G1 X95.56 Y111.184 E2.59761
G1 X95.515 Y110.356 E2.62519
G1 X95.511 Y110.1 E2.63371
G1 X95.525 Y109.35 E2.65866
G1 X95.536 Y109.141 E2.66562
G1 X95.596 Y108.434 E2.68922
G1 X95.624 Y108.196 E2.69719
G1 X95.691 Y107.718 E2.71324
G1 X95.893 Y106.707 E2.74753
G1 X95.995 Y106.298 E2.76155
G1 X96.294 Y105.301 E2.79617
G1 X96.373 Y105.077 E2.80407
G1 X96.662 Y104.345 E2.83025
G1 X96.78 Y104.074 E2.84008
G1 X97.195 Y103.222 E2.8716
G1 X97.317 Y102.997 E2.88011
G1 X97.705 Y102.337 E2.90557
G1 X97.85 Y102.109 E2.91456
G1 X98.674 Y100.979 E2.96108
G1 X99.069 Y100.504 E2.98162
G1 X100.007 Y99.509 E3.0271
G0 F6000 X100.28 Y99.801
G1 F1200 X100.454 Y99.638 E3.03503
G1 X101.049 Y99.121 E3.06125
G1 X101.25 Y98.959 E3.06984
G1 X101.82 Y98.531 E3.09355
G1 X101.987 Y98.414 E3.10033
G1 X102.956 Y97.81 E3.1383
G1 X103.479 Y97.522 E3.15816
G1 X104.621 Y96.979 E3.20022
G1 X104.866 Y96.88 E3.20901
G1 X105.743 Y96.57 E3.23995
G1 X105.992 Y96.494 E3.24861
G1 X106.567 Y96.336 E3.26844
G1 X106.8 Y96.279 E3.27642
G1 X107.948 Y96.064 E3.31526
G1 X108.178 Y96.034 E3.32298
G1 X109.095 Y95.955 E3.35359
G1 X109.56 Y95.945 E3.36906
G1 X110.508 Y95.946 E3.40059
G1 X111.428 Y95.987 E3.43122
G1 X111.996 Y96.053 E3.45024
G1 X112.087 Y96.066 E3.4533
G1 X112.747 Y96.181 E3.47558
G1 X112.997 Y96.233 E3.48407
G1 X113.788 Y96.43 E3.51119
G1 X114.033 Y96.501 E3.51967
G1 X114.719 Y96.725 E3.54367
G1 X114.96 Y96.813 E3.55221
G1 X115.732 Y97.13 E3.57996
G1 X115.966 Y97.237 E3.58852
G1 X116.649 Y97.579 E3.61393
G1 X116.87 Y97.7 E3.62231
G1 X117.476 Y98.059 E3.64573
G1 X117.669 Y98.182 E3.65334
G1 X118.245 Y98.576 E3.67656
G1 X118.418 Y98.703 E3.68369
G1 X118.967 Y99.135 E3.70693
G1 X119.187 Y99.32 E3.71649
G1 X119.84 Y99.917 E3.74592
G1 X120.021 Y100.097 E3.75441
G1 X120.534 Y100.645 E3.77937
G1 X120.698 Y100.833 E3.78767
G1 X121.021 Y101.222 E3.80449
G1 X121.078 Y101.294 E3.80754
G1 X121.351 Y101.654 E3.82257
G1 X121.493 Y101.85 E3.83062
G1 X122.002 Y102.621 E3.86135
G1 X122.153 Y102.873 E3.87112
G1 X122.549 Y103.597 E3.89857
G1 X122.667 Y103.834 E3.90737
G1 X122.97 Y104.499 E3.93168
G1 X123.067 Y104.733 E3.9401
G1 X123.337 Y105.457 E3.9658
G1 X123.396 Y105.635 E3.97204
G1 X123.691 Y106.713 E4.00921
G1 X123.82 Y107.305 E4.02936
G1 X124.021 Y108.617 E4.07351
G1 X124.044 Y108.874 E4.08209
G1 X124.085 Y109.703 E4.1097
G1 X124.088 Y109.978 E4.11885
G1 X124.072 Y110.692 E4.1426
G1 X124.059 Y110.922 E4.15026
G1 X123.977 Y111.767 E4.1785
G1 X123.937 Y112.058 E4.18827
G1 X123.931 Y112.057 E4.18847
G1 X123.716 Y113.208 E4.22742
G1 X123.615 Y113.611 E4.24123
G1 X123.353 Y114.494 E4.27187
G1 X123.276 Y114.717 E4.27971
G1 X122.975 Y115.487 E4.30721
G1 X122.854 Y115.765 E4.3173
G1 X122.46 Y116.575 E4.34726
G1 X122.34 Y116.797 E4.35565
G1 X121.965 Y117.437 E4.38032
G1 X121.696 Y117.856 E4.39688
G1 X121.018 Y118.766 E4.43462
G1 X120.623 Y119.241 E4.45517
G1 X119.72 Y120.199 E4.49896
G1 X119.546 Y120.362 E4.50689
G1 X118.951 Y120.879 E4.53311
G1 X118.75 Y121.041 E4.54169
G1 X118.209 Y121.449 E4.56423
G1 X118.046 Y121.564 E4.57086
G1 X117.057 Y122.183 E4.60967
G1 X116.528 Y122.475 E4.62977
G1 X115.329 Y123.042 E4.67388
G1 X115.088 Y123.138 E4.68251
G1 X114.263 Y123.428 E4.71159
G1 X114.011 Y123.505 E4.72036
G1 X113.421 Y123.667 E4.74071
G1 X113.191 Y123.723 E4.74858
G1 X112.008 Y123.941 E4.78859
G1 X111.762 Y123.972 E4.79684
G1 X110.426 Y124.055 E4.84136
G1 X109.495 Y124.054 E4.87232
G1 X108.575 Y124.013 E4.90295
G1 X107.697 Y123.898 E4.93241
G1 X107.443 Y123.854 E4.94098
G1 X106.583 Y123.669 E4.97024
G1 X106.337 Y123.605 E4.97869
G1 X105.792 Y123.447 E4.99756
G1 X105.379 Y123.31 E5.01204
G1 X105.187 Y123.242 E5.01881
G1 X104.739 Y123.072 E5.03475
G1 X104.284 Y122.877 E5.05121
G1 X104.049 Y122.77 E5.0598
G1 X103.413 Y122.454 E5.08342
G1 X103.22 Y122.35 E5.09071
G1 X102.575 Y121.973 E5.11556
G1 X102.354 Y121.833 E5.12426
G1 X101.746 Y121.418 E5.14875
G1 X101.572 Y121.29 E5.15593
G1 X101.016 Y120.851 E5.17949
G1 X100.798 Y120.667 E5.18898
G1 X100.445 Y120.356 E5.20463
G1 X100.393 Y120.308 E5.20698
G1 X99.953 Y119.878 E5.22745
G1 X99.763 Y119.681 E5.23655
G1 X99.206 Y119.055 E5.26442
G1 X99.044 Y118.858 E5.2729
G1 X98.605 Y118.286 E5.29688
G1 X98.455 Y118.076 E5.30547
G1 X97.972 Y117.336 E5.33486
G1 X97.825 Y117.089 E5.34442
G1 X97.421 Y116.344 E5.37261
G1 X97.304 Y116.106 E5.38143
G1 X97.027 Y115.495 E5.40374
G1 X96.934 Y115.271 E5.41181
G1 X96.652 Y114.508 E5.43886
G1 X96.592 Y114.325 E5.44527
G1 X96.304 Y113.264 E5.48183
G1 X96.177 Y112.677 E5.50181
G1 X95.981 Y111.399 E5.54481
G1 X95.958 Y111.147 E5.55323
G1 X95.915 Y110.35 E5.57978
G1 X95.911 Y110.094 E5.58829
G1 X95.925 Y109.371 E5.61234
G1 X95.936 Y109.162 E5.6193
G1 X95.994 Y108.48 E5.64207
G1 X96.022 Y108.242 E5.65004
G1 X96.069 Y107.89 E5.66185
G1 X96.086 Y107.778 E5.66562
G1 X96.281 Y106.804 E5.69866
G1 X96.383 Y106.395 E5.71268
G1 X96.671 Y105.434 E5.74605
G1 X96.75 Y105.21 E5.75395
G1 X97.028 Y104.504 E5.77918
G1 X97.146 Y104.233 E5.78901
G1 X97.547 Y103.412 E5.8194
G1 X97.669 Y103.187 E5.82791
G1 X98.043 Y102.552 E5.85243
G1 X98.188 Y102.324 E5.86141
G1 X98.982 Y101.234 E5.90627
G1 X99.377 Y100.759 E5.92681
G1 X100.28 Y99.801 E5.9706
G0 F6000 X100.554 Y100.093
G1 F1200 X100.728 Y99.93 E5.97853
G1 X101.3 Y99.432 E6.00375
G1 X101.501 Y99.27 E6.01234
G1 X102.049 Y98.858 E6.03514
G1 X102.216 Y98.741 E6.04193
G1 X103.149 Y98.16 E6.07848
G1 X103.672 Y97.872 E6.09834
G1 X104.771 Y97.35 E6.13881
G1 X105.016 Y97.251 E6.1476
G1 X105.859 Y96.952 E6.17735
G1 X106.108 Y96.876 E6.186
G1 X106.662 Y96.724 E6.20511
G1 X106.895 Y96.667 E6.21309
G1 X108 Y96.461 E6.25048
G1 X108.23 Y96.431 E6.25819
G1 X109.56 Y96.345 E6.30252
G1 X110.508 Y96.346 E6.33405
G1 X111.41 Y96.387 E6.36408
G1 X111.939 Y96.449 E6.3818
G1 X112.03 Y96.462 E6.38485
G1 X112.665 Y96.573 E6.40629
G1 X112.915 Y96.625 E6.41479
G1 X113.677 Y96.814 E6.4409
G1 X113.922 Y96.885 E6.44938
G1 X114.582 Y97.101 E6.47248
G1 X114.823 Y97.189 E6.48101
G1 X115.566 Y97.494 E6.50773
G1 X115.8 Y97.601 E6.51629
G1 X116.456 Y97.93 E6.54069
G1 X116.677 Y98.051 E6.54907
G1 X117.261 Y98.396 E6.57163
G1 X117.454 Y98.519 E6.57925
G1 X118.008 Y98.899 E6.60159
G1 X118.181 Y99.026 E6.60873
G1 X118.71 Y99.441 E6.63109
G1 X118.93 Y99.626 E6.64065
G1 X119.557 Y100.201 E6.66895
G1 X119.738 Y100.381 E6.67744
G1 X120.232 Y100.908 E6.70146
G1 X120.396 Y101.096 E6.70976
G1 X120.707 Y101.47 E6.72594
G1 X120.764 Y101.542 E6.72899
G1 X121.027 Y101.889 E6.74347
G1 X121.169 Y102.085 E6.75152
G1 X121.658 Y102.826 E6.78105
G1 X121.809 Y103.078 E6.79082
G1 X122.191 Y103.775 E6.81726
G1 X122.309 Y104.012 E6.82607
G1 X122.601 Y104.652 E6.84946
G1 X122.698 Y104.886 E6.85789
G1 X122.957 Y105.583 E6.88262
G1 X123.016 Y105.761 E6.88886
G1 X123.3 Y106.798 E6.92462
G1 X123.429 Y107.39 E6.94477
G1 X123.622 Y108.653 E6.98726
G1 X123.645 Y108.91 E6.99585
G1 X123.685 Y109.708 E7.02242
G1 X123.688 Y109.983 E7.03157
G1 X123.673 Y110.67 E7.05442
G1 X123.66 Y110.9 E7.06209
G1 X123.581 Y111.713 E7.08925
G1 X123.541 Y112.004 E7.09902
G1 X123.535 Y112.003 E7.09922
G1 X123.328 Y113.111 E7.13671
G1 X123.227 Y113.514 E7.15053
G1 X122.974 Y114.363 E7.18
G1 X122.897 Y114.586 E7.18784
G1 X122.609 Y115.328 E7.21432
G1 X122.488 Y115.606 E7.2244
G1 X122.108 Y116.385 E7.25323
G1 X121.988 Y116.607 E7.26162
G1 X121.627 Y117.223 E7.28537
G1 X121.363 Y117.634 E7.30162
G1 X120.711 Y118.51 E7.33794
G1 X120.316 Y118.985 E7.35849
G1 X119.446 Y119.907 E7.40065
G1 X119.272 Y120.07 E7.40858
G1 X118.7 Y120.568 E7.4338
G1 X118.499 Y120.73 E7.44239
G1 X117.978 Y121.122 E7.46407
G1 X117.815 Y121.237 E7.47071
G1 X116.864 Y121.833 E7.50804
G1 X116.335 Y122.125 E7.52814
G1 X115.181 Y122.671 E7.5706
G1 X114.94 Y122.767 E7.57923
G1 X114.146 Y123.046 E7.60722
G1 X113.894 Y123.123 E7.61598
G1 X113.326 Y123.278 E7.63556
G1 X113.096 Y123.334 E7.64344
G1 X111.958 Y123.544 E7.68193
G1 X111.712 Y123.575 E7.69017
G1 X110.426 Y123.655 E7.73303
G1 X109.495 Y123.654 E7.76399
G1 X108.593 Y123.613 E7.79402
G1 X107.765 Y123.504 E7.8218
G1 X107.511 Y123.46 E7.83038
G1 X106.684 Y123.281 E7.85852
G1 X106.438 Y123.217 E7.86697
G1 X105.913 Y123.066 E7.88514
G1 X105.513 Y122.933 E7.89916
G1 X105.321 Y122.865 E7.90594
G1 X104.888 Y122.7 E7.92135
G1 X104.449 Y122.513 E7.93722
G1 X104.214 Y122.406 E7.94581
G1 X103.602 Y122.102 E7.96854
G1 X103.409 Y121.998 E7.97583
G1 X102.79 Y121.636 E7.99968
G1 X102.569 Y121.496 E8.00838
G1 X101.983 Y121.095 E8.032
G1 X101.809 Y120.967 E8.03918
G1 X101.274 Y120.546 E8.06182
G1 X101.056 Y120.362 E8.07131
G1 X100.665 Y120.014 E8.08872
G1 X100.241 Y119.6 E8.10843
G1 X100.051 Y119.403 E8.11753
G1 X99.515 Y118.801 E8.14434
G1 X99.353 Y118.604 E8.15283
G1 X98.931 Y118.054 E8.17588
G1 X98.781 Y117.844 E8.18447
G1 X98.316 Y117.132 E8.21275
G1 X98.169 Y116.885 E8.22231
G1 X97.78 Y116.168 E8.24944
G1 X97.663 Y115.93 E8.25826
G1 X97.397 Y115.341 E8.27976
G1 X97.304 Y115.117 E8.28783
G1 X97.032 Y114.384 E8.31383
G1 X96.972 Y114.201 E8.32024
G1 X96.695 Y113.18 E8.35542
G1 X96.568 Y112.593 E8.3754
G1 X96.379 Y111.363 E8.41679
G1 X96.356 Y111.111 E8.4252
G1 X96.315 Y110.343 E8.45078
G1 X96.311 Y110.087 E8.4593
G1 X96.324 Y109.392 E8.48242
G1 X96.335 Y109.183 E8.48938
G1 X96.391 Y108.527 E8.51128
G1 X96.419 Y108.289 E8.51925
G1 X96.482 Y107.838 E8.53439
G1 X96.669 Y106.901 E8.56617
G1 X96.771 Y106.492 E8.58019
G1 X97.049 Y105.567 E8.61232
G1 X97.128 Y105.343 E8.62022
G1 X97.395 Y104.664 E8.64449
G1 X97.513 Y104.393 E8.65432
G1 X97.898 Y103.603 E8.68355
G1 X98.02 Y103.378 E8.69206
G1 X98.38 Y102.766 E8.71567
G1 X98.525 Y102.538 E8.72466
G1 X99.289 Y101.49 E8.7678
G1 X99.684 Y101.015 E8.78835
G1 X100.554 Y100.093 E8.83051
G1 F2700 E3.83051
;MESH:Plattenspielermoebel_Bolzen.stl
G0 F6000 X106.263 Y108.163
G0 X107.218 Y108.674
G0 X107.302 Y110.404
G0 X107.545 Y111.191
G0 X107.919 Y111.736
G0 X108.899 Y112.682
;TYPE:WALL-INNER
G1 F2700 E8.83051
G1 F1200 X108.567 Y112.521 E8.84278
G1 X108.516 Y112.487 E8.84482
G1 X108.205 Y112.277 E8.8573
G1 X107.882 Y111.981 E8.87187
G1 X107.606 Y111.638 E8.88651
G1 X107.393 Y111.268 E8.90071
G1 X107.232 Y110.862 E8.91524
G1 X107.134 Y110.435 E8.92981
G1 X107.101 Y110 E8.94432
G1 X107.134 Y109.559 E8.95903
G1 X107.232 Y109.135 E8.9735
G1 X107.389 Y108.737 E8.98774
G1 X107.494 Y108.543 E8.99507
G1 X107.746 Y108.178 E9.00982
G1 X108.046 Y107.859 E9.02439
G1 X108.389 Y107.591 E9.03887
G1 X108.57 Y107.488 E9.04579
G1 X108.771 Y107.374 E9.05348
G1 X108.9 Y107.319 E9.05814
G1 X108.9 Y107.374
G1 X108.9 Y107.605 E9.06358
G1 X108.9 Y112.459 E9.22503
G1 X108.9 Y112.521
G1 X108.899 Y112.682 E9.22591
G0 F6000 X109.299 Y113.224
;TYPE:WALL-OUTER
G1 F1200 X109.047 Y113.16 E9.23456
G1 X108.814 Y113.08 E9.24276
G1 X108.579 Y112.979 E9.25126
G1 X108.368 Y112.868 E9.25919
G1 X108.147 Y112.73 E9.26786
G1 X107.957 Y112.591 E9.27569
G1 X107.766 Y112.428 E9.28404
G1 X107.583 Y112.247 E9.2926
G1 X107.282 Y111.872 E9.30859
G1 X107.149 Y111.661 E9.31689
G1 X107.027 Y111.431 E9.32555
G1 X106.931 Y111.211 E9.33353
G1 X106.846 Y110.97 E9.34203
G1 X106.738 Y110.501 E9.35804
G1 X106.709 Y110.241 E9.36674
G1 X106.7 Y110 E9.37476
G1 X106.71 Y109.747 E9.38318
G1 X106.74 Y109.486 E9.39192
G1 X106.847 Y109.024 E9.40769
G1 X106.932 Y108.784 E9.41616
G1 X107.025 Y108.571 E9.42389
G1 X107.153 Y108.333 E9.43288
G1 X107.434 Y107.926 E9.44933
G1 X107.773 Y107.566 E9.46578
G1 X107.957 Y107.41 E9.4738
