;FLAVOR:Marlin
;TIME:3879
;Filament used: 2.37694m
;Layer height: 0.2








;POSTPROCESSED
;ChangeAtZ instances: 1
;Generated with Cura_SteamEngine 3.6.0
M140 S45
M105
M190 S45
M104 S230
M105
M109 S230
M82 ;absolute extrusion mode
; Ender 3 Custom Start G-code
G28 ; Home all axes
G92 E0 ; Reset Extruder
G1 Z2.0 F3000 ; Move Z Axis up little to prevent scratching of Heat Bed
G1 X0.1 Y20 Z0.3 F5000.0 ; Move to start position
G1 X0.1 Y100.0 Z0.3 F1500.0 E15 ; Draw the first line
G1 X0.4 Y100.0 Z0.3 F5000.0 ; Move to side a little
G1 X0.4 Y20 Z0.3 F1500.0 E30 ; Draw the second line
G92 E0 ; Reset Extruder
G1 Z2.0 F3000 ; Move Z Axis up little to prevent scratching of Heat Bed
; End of custom start GCode
G92 E0
G1 F3300 E-5
;LAYER_COUNT:312








;LAYER:0
M107
M204 S5000
M205 X30 Y30
;MESH:190-230_PLA_Temp_calibration.stl
G0 F1800 X136.975 Y121.975 Z0.2
M204 S500
M205 X20 Y20
;TYPE:WALL-INNER
G1 F3300 E0
G1 F1200 X98.025 Y121.975 E1.13355
G1 X98.025 Y113.025 E1.39402
G1 X136.975 Y113.025 E2.52756
G1 X136.975 Y121.975 E2.78803
M204 S5000
M205 X30 Y30
G0 F1800 X137.3 Y122.3
M204 S500
M205 X20 Y20
;TYPE:WALL-OUTER
G1 F1200 X97.7 Y122.3 E3.94049
G1 X97.7 Y112.7 E4.21988
G1 X137.3 Y112.7 E5.37234
G1 X137.3 Y122.3 E5.65173
M204 S5000
M205 X30 Y30
G0 F1800 X137.1 Y122.3
G0 X136.905 Y121.905
G0 X136.61 Y121.61
M204 S500
M205 X20 Y20
;TYPE:SKIN
G1 F1200 X98.39 Y121.61 E6.92293
G1 X98.39 Y113.39 E7.19633
G1 X136.61 Y113.39 E8.46753
G1 X136.61 Y121.61 E8.74093
M204 S5000
M205 X30 Y30
G0 F1800 X136.428 Y113.801
M204 S500
M205 X20 Y20
G1 F1200 X136.197 Y113.57 E8.7518
M204 S5000
M205 X30 Y30
G0 F1800 X135.632 Y113.57
M204 S500
M205 X20 Y20
G1 F1200 X136.428 Y114.366 E8.78924
M204 S5000
M205 X30 Y30
G0 F1800 X136.428 Y114.932
M204 S500
M205 X20 Y20
G1 F1200 X135.066 Y113.57 E8.8533
M204 S5000
M205 X30 Y30
G0 F1800 X134.5 Y113.57
M204 S500
M205 X20 Y20
G1 F1200 X136.428 Y115.498 E8.94399
M204 S5000
M205 X30 Y30
G0 F1800 X136.428 Y116.063
M204 S500
M205 X20 Y20
G1 F1200 X133.935 Y113.57 E9.06125
M204 S5000
M205 X30 Y30
G0 F1800 X133.369 Y113.57
M204 S500
M205 X20 Y20
G1 F1200 X136.428 Y116.629 E9.20514
M204 S5000
M205 X30 Y30
G0 F1800 X136.428 Y117.195
M204 S500
M205 X20 Y20
G1 F1200 X132.803 Y113.57 E9.37565
M204 S5000
M205 X30 Y30
G0 F1800 X132.238 Y113.57
M204 S500
M205 X20 Y20
G1 F1200 X136.428 Y117.76 E9.57273
M204 S5000
M205 X30 Y30
G0 F1800 X136.428 Y118.326
M204 S500
M205 X20 Y20
G1 F1200 X131.672 Y113.57 E9.79644
M204 S5000
M205 X30 Y30
G0 F1800 X131.106 Y113.57
M204 S500
M205 X20 Y20
G1 F1200 X136.428 Y118.892 E10.04677
M204 S5000
M205 X30 Y30
G0 F1800 X136.428 Y119.457
M204 S500
M205 X20 Y20
G1 F1200 X130.541 Y113.57 E10.32368
M204 S5000
M205 X30 Y30
G0 F1800 X129.975 Y113.57
M204 S500
M205 X20 Y20
G1 F1200 X136.428 Y120.023 E10.6272
M204 S5000
M205 X30 Y30
G0 F1800 X136.428 Y120.589
M204 S500
M205 X20 Y20
G1 F1200 X129.409 Y113.57 E10.95736
M204 S5000
M205 X30 Y30
G0 F1800 X128.844 Y113.57
M204 S500
M205 X20 Y20
G1 F1200 X136.428 Y121.154 E11.31409
M204 S5000
M205 X30 Y30
G0 F1800 X136.136 Y121.428
M204 S500
M205 X20 Y20
G1 F1200 X128.278 Y113.57 E11.6837
M204 S5000
M205 X30 Y30
G0 F1800 X127.712 Y113.57
M204 S500
M205 X20 Y20
G1 F1200 X135.57 Y121.428 E12.05332
M204 S5000
M205 X30 Y30
G0 F1800 X135.005 Y121.428
M204 S500
M205 X20 Y20
G1 F1200 X127.146 Y113.57 E12.42296
M204 S5000
M205 X30 Y30
G0 F1800 X126.581 Y113.57
M204 S500
M205 X20 Y20
G1 F1200 X134.439 Y121.428 E12.79257
M204 S5000
M205 X30 Y30
G0 F1800 X133.873 Y121.428
M204 S500
M205 X20 Y20
G1 F1200 X126.015 Y113.57 E13.16219
M204 S5000
M205 X30 Y30
G0 F1800 X125.449 Y113.57
M204 S500
M205 X20 Y20
G1 F1200 X133.308 Y121.428 E13.53183
M204 S5000
M205 X30 Y30
G0 F1800 X132.742 Y121.428
M204 S500
M205 X20 Y20
G1 F1200 X124.884 Y113.57 E13.90145
M204 S5000
M205 X30 Y30
G0 F1800 X124.318 Y113.57
M204 S500
M205 X20 Y20
G1 F1200 X132.176 Y121.428 E14.27106
M204 S5000
M205 X30 Y30
G0 F1800 X131.61 Y121.428
M204 S500
M205 X20 Y20
G1 F1200 X123.752 Y113.57 E14.64068
M204 S5000
M205 X30 Y30
G0 F1800 X123.187 Y113.57
M204 S500
M205 X20 Y20
G1 F1200 X131.045 Y121.428 E15.01029
M204 S5000
M205 X30 Y30
G0 F1800 X130.479 Y121.428
M204 S500
M205 X20 Y20
G1 F1200 X122.621 Y113.57 E15.37991
M204 S5000
M205 X30 Y30
G0 F1800 X122.055 Y113.57
M204 S500
M205 X20 Y20
G1 F1200 X129.913 Y121.428 E15.74953
M204 S5000
M205 X30 Y30
G0 F1800 X129.348 Y121.428
M204 S500
M205 X20 Y20
G1 F1200 X121.49 Y113.57 E16.11914
M204 S5000
M205 X30 Y30
G0 F1800 X120.924 Y113.57
M204 S500
M205 X20 Y20
G1 F1200 X128.782 Y121.428 E16.48876
M204 S5000
M205 X30 Y30
G0 F1800 X128.216 Y121.428
M204 S500
M205 X20 Y20
G1 F1200 X120.358 Y113.57 E16.85838
M204 S5000
M205 X30 Y30
G0 F1800 X119.793 Y113.57
M204 S500
M205 X20 Y20
G1 F1200 X127.651 Y121.428 E17.22799
M204 S5000
M205 X30 Y30
G0 F1800 X127.085 Y121.428
M204 S500
M205 X20 Y20
G1 F1200 X119.227 Y113.57 E17.59761
M204 S5000
M205 X30 Y30
G0 F1800 X118.661 Y113.57
M204 S500
M205 X20 Y20
G1 F1200 X126.519 Y121.428 E17.96722
M204 S5000
M205 X30 Y30
G0 F1800 X125.954 Y121.428
M204 S500
M205 X20 Y20
G1 F1200 X118.096 Y113.57 E18.33684
M204 S5000
M205 X30 Y30
G0 F1800 X117.53 Y113.57
M204 S500
M205 X20 Y20
G1 F1200 X125.388 Y121.428 E18.70646
M204 S5000
M205 X30 Y30
G0 F1800 X124.822 Y121.428
M204 S500
M205 X20 Y20
G1 F1200 X116.964 Y113.57 E19.07607
M204 S5000
M205 X30 Y30
G0 F1800 X116.398 Y113.57
M204 S500
M205 X20 Y20
G1 F1200 X124.257 Y121.428 E19.44571
M204 S5000
M205 X30 Y30
G0 F1800 X123.691 Y121.428
M204 S500
M205 X20 Y20
G1 F1200 X115.833 Y113.57 E19.81533
M204 S5000
M205 X30 Y30
G0 F1800 X115.267 Y113.57
M204 S500
M205 X20 Y20
G1 F1200 X123.125 Y121.428 E20.18495
M204 S5000
M205 X30 Y30
G0 F1800 X122.559 Y121.428
M204 S500
M205 X20 Y20
G1 F1200 X114.701 Y113.57 E20.55456
M204 S5000
M205 X30 Y30
G0 F1800 X114.136 Y113.57
M204 S500
M205 X20 Y20
G1 F1200 X121.994 Y121.428 E20.92418
M204 S5000
M205 X30 Y30
G0 F1800 X121.428 Y121.428
M204 S500
M205 X20 Y20
G1 F1200 X113.57 Y113.57 E21.29379
M204 S5000
M205 X30 Y30
G0 F1800 X113.004 Y113.57
M204 S500
M205 X20 Y20
G1 F1200 X120.862 Y121.428 E21.66341
M204 S5000
M205 X30 Y30
G0 F1800 X120.297 Y121.428
M204 S500
M205 X20 Y20
G1 F1200 X112.439 Y113.57 E22.03303
M204 S5000
M205 X30 Y30
G0 F1800 X111.873 Y113.57
M204 S500
M205 X20 Y20
G1 F1200 X119.731 Y121.428 E22.40264
M204 S5000
M205 X30 Y30
G0 F1800 X119.165 Y121.428
M204 S500
M205 X20 Y20
G1 F1200 X111.307 Y113.57 E22.77226
M204 S5000
M205 X30 Y30
G0 F1800 X110.742 Y113.57
M204 S500
M205 X20 Y20
G1 F1200 X118.6 Y121.428 E23.14188
M204 S5000
M205 X30 Y30
G0 F1800 X118.034 Y121.428
M204 S500
M205 X20 Y20
G1 F1200 X110.176 Y113.57 E23.51149
M204 S5000
M205 X30 Y30
G0 F1800 X109.61 Y113.57
M204 S500
M205 X20 Y20
G1 F1200 X117.468 Y121.428 E23.88111
M204 S5000
M205 X30 Y30
G0 F1800 X116.903 Y121.428
M204 S500
M205 X20 Y20
G1 F1200 X109.045 Y113.57 E24.25072
M204 S5000
M205 X30 Y30
G0 F1800 X108.479 Y113.57
M204 S500
M205 X20 Y20
G1 F1200 X116.337 Y121.428 E24.62034
M204 S5000
M205 X30 Y30
G0 F1800 X115.771 Y121.428
M204 S500
M205 X20 Y20
G1 F1200 X107.913 Y113.57 E24.98996
M204 S5000
M205 X30 Y30
G0 F1800 X107.348 Y113.57
M204 S500
M205 X20 Y20
G1 F1200 X115.206 Y121.428 E25.35957
M204 S5000
M205 X30 Y30
G0 F1800 X114.64 Y121.428
M204 S500
M205 X20 Y20
G1 F1200 X106.782 Y113.57 E25.72919
M204 S5000
M205 X30 Y30
G0 F1800 X106.216 Y113.57
M204 S500
M205 X20 Y20
G1 F1200 X114.074 Y121.428 E26.0988
M204 S5000
M205 X30 Y30
G0 F1800 X113.509 Y121.428
M204 S500
M205 X20 Y20
G1 F1200 X105.65 Y113.57 E26.46844
M204 S5000
M205 X30 Y30
G0 F1800 X105.085 Y113.57
M204 S500
M205 X20 Y20
G1 F1200 X112.943 Y121.428 E26.83806
M204 S5000
M205 X30 Y30
G0 F1800 X112.377 Y121.428
M204 S500
M205 X20 Y20
G1 F1200 X104.519 Y113.57 E27.20768
M204 S5000
M205 X30 Y30
G0 F1800 X103.953 Y113.57
M204 S500
M205 X20 Y20
G1 F1200 X111.811 Y121.428 E27.57729
M204 S5000
M205 X30 Y30
G0 F1800 X111.246 Y121.428
M204 S500
M205 X20 Y20
G1 F1200 X103.388 Y113.57 E27.94691
M204 S5000
M205 X30 Y30
G0 F1800 X102.822 Y113.57
M204 S500
M205 X20 Y20
G1 F1200 X110.68 Y121.428 E28.31653
M204 S5000
M205 X30 Y30
G0 F1800 X110.114 Y121.428
M204 S500
M205 X20 Y20
G1 F1200 X102.256 Y113.57 E28.68614
M204 S5000
M205 X30 Y30
G0 F1800 X101.691 Y113.57
M204 S500
M205 X20 Y20
G1 F1200 X109.549 Y121.428 E29.05576
M204 S5000
M205 X30 Y30
G0 F1800 X108.983 Y121.428
M204 S500
M205 X20 Y20
G1 F1200 X101.125 Y113.57 E29.42537
M204 S5000
M205 X30 Y30
G0 F1800 X100.559 Y113.57
M204 S500
M205 X20 Y20
G1 F1200 X108.417 Y121.428 E29.79499
M204 S5000
M205 X30 Y30
G0 F1800 X107.852 Y121.428
M204 S500
M205 X20 Y20
G1 F1200 X99.994 Y113.57 E30.16461
M204 S5000
M205 X30 Y30
G0 F1800 X99.428 Y113.57
M204 S500
M205 X20 Y20
G1 F1200 X107.286 Y121.428 E30.53422
M204 S5000
M205 X30 Y30
G0 F1800 X106.72 Y121.428
M204 S500
M205 X20 Y20
G1 F1200 X98.862 Y113.57 E30.90384
M204 S5000
M205 X30 Y30
G0 F1800 X98.57 Y113.844
M204 S500
M205 X20 Y20
G1 F1200 X106.155 Y121.428 E31.26059
M204 S5000
M205 X30 Y30
G0 F1800 X105.589 Y121.428
M204 S500
M205 X20 Y20
G1 F1200 X98.57 Y114.409 E31.59074
M204 S5000
M205 X30 Y30
G0 F1800 X98.57 Y114.975
M204 S500
M205 X20 Y20
G1 F1200 X105.023 Y121.428 E31.89427
M204 S5000
M205 X30 Y30
G0 F1800 X104.458 Y121.428
M204 S500
M205 X20 Y20
G1 F1200 X98.57 Y115.541 E32.1712
M204 S5000
M205 X30 Y30
G0 F1800 X98.57 Y116.106
M204 S500
M205 X20 Y20
G1 F1200 X103.892 Y121.428 E32.42153
M204 S5000
M205 X30 Y30
G0 F1800 X103.326 Y121.428
M204 S500
M205 X20 Y20
G1 F1200 X98.57 Y116.672 E32.64524
M204 S5000
M205 X30 Y30
G0 F1800 X98.57 Y117.238
M204 S500
M205 X20 Y20
G1 F1200 X102.761 Y121.428 E32.84235
M204 S5000
M205 X30 Y30
G0 F1800 X102.195 Y121.428
M204 S500
M205 X20 Y20
G1 F1200 X98.57 Y117.803 E33.01286
M204 S5000
M205 X30 Y30
G0 F1800 X98.57 Y118.369
M204 S500
M205 X20 Y20
G1 F1200 X101.629 Y121.428 E33.15674
M204 S5000
M205 X30 Y30
G0 F1800 X101.063 Y121.428
M204 S500
M205 X20 Y20
G1 F1200 X98.57 Y118.935 E33.27401
M204 S5000
M205 X30 Y30
G0 F1800 X98.57 Y119.501
M204 S500
M205 X20 Y20
G1 F1200 X100.498 Y121.428 E33.36467
M204 S5000
M205 X30 Y30
G0 F1800 X99.932 Y121.428
M204 S500
M205 X20 Y20
G1 F1200 X98.57 Y120.066 E33.42874
M204 S5000
M205 X30 Y30
G0 F1800 X98.57 Y120.632
M204 S500
M205 X20 Y20
G1 F1200 X99.366 Y121.428 E33.46618
M204 S5000
M205 X30 Y30
G0 F1800 X98.801 Y121.428
M204 S500
M205 X20 Y20
G1 F1200 X98.57 Y121.198 E33.47702
M204 S5000
M205 X30 Y30
;MESH:NONMESH
G0 F1800 X136.905 Y121.905
G0 X136.975 Y121.975
;TIME_ELAPSED:65.671850








;LAYER:1
M140 S45
M106 S16.4
;MESH:190-230_PLA_Temp_calibration.stl
G0 F5400 X136.975 Y121.975 Z0.4
M204 S500
M205 X20 Y20
;TYPE:WALL-INNER
G1 F2100 X98.025 Y121.975 E34.61057
G1 X98.025 Y113.025 E34.87103
G1 X136.975 Y113.025 E36.00458
G1 X136.975 Y121.975 E36.26505
M204 S5000
M205 X30 Y30
G0 F5400 X137.3 Y122.3
M204 S500
M205 X20 Y20
;TYPE:WALL-OUTER
G1 F1800 X97.7 Y122.3 E37.41751
G1 X97.7 Y112.7 E37.6969
G1 X137.3 Y112.7 E38.84936
G1 X137.3 Y122.3 E39.12875
M204 S5000
M205 X30 Y30
G0 F5400 X137.1 Y122.3
G0 X136.905 Y121.905
G0 X136.61 Y121.61
M204 S500
M205 X20 Y20
;TYPE:SKIN
G1 F1650 X98.39 Y121.61 E40.39995
G1 X98.39 Y113.39 E40.67335
G1 X136.61 Y113.39 E41.94455
G1 X136.61 Y121.61 E42.21795
M204 S5000
M205 X30 Y30
G0 F5400 X136.428 Y120.958
M204 S500
M205 X20 Y20
G1 F1650 X135.957 Y121.429 E42.2401
M204 S5000
M205 X30 Y30
G0 F5400 X135.391 Y121.429
M204 S500
M205 X20 Y20
G1 F1650 X136.428 Y120.392 E42.28888
M204 S5000
M205 X30 Y30
G0 F5400 X136.428 Y119.827
M204 S500
M205 X20 Y20
G1 F1650 X134.826 Y121.429 E42.36423
M204 S5000
M205 X30 Y30
G0 F5400 X134.26 Y121.429
M204 S500
M205 X20 Y20
G1 F1650 X136.428 Y119.261 E42.46621
M204 S5000
M205 X30 Y30
G0 F5400 X136.428 Y118.695
M204 S500
M205 X20 Y20
G1 F1650 X133.694 Y121.429 E42.59481
M204 S5000
M205 X30 Y30
G0 F5400 X133.129 Y121.429
M204 S500
M205 X20 Y20
G1 F1650 X136.428 Y118.129 E42.75001
M204 S5000
M205 X30 Y30
G0 F5400 X136.428 Y117.564
M204 S500
M205 X20 Y20
G1 F1650 X132.563 Y121.429 E42.9318
M204 S5000
M205 X30 Y30
G0 F5400 X131.997 Y121.429
M204 S500
M205 X20 Y20
G1 F1650 X136.428 Y116.998 E43.14022
M204 S5000
M205 X30 Y30
G0 F5400 X136.428 Y116.432
M204 S500
M205 X20 Y20
G1 F1650 X131.432 Y121.429 E43.37524
M204 S5000
M205 X30 Y30
G0 F5400 X130.866 Y121.429
M204 S500
M205 X20 Y20
G1 F1650 X136.428 Y115.867 E43.63686
M204 S5000
M205 X30 Y30
G0 F5400 X136.428 Y115.301
M204 S500
M205 X20 Y20
G1 F1650 X130.3 Y121.429 E43.92511
M204 S5000
M205 X30 Y30
G0 F5400 X129.735 Y121.429
M204 S500
M205 X20 Y20
G1 F1650 X136.428 Y114.735 E44.23995
M204 S5000
M205 X30 Y30
G0 F5400 X136.428 Y114.17
M204 S500
M205 X20 Y20
G1 F1650 X129.169 Y121.429 E44.58139
M204 S5000
M205 X30 Y30
G0 F5400 X128.603 Y121.429
M204 S500
M205 X20 Y20
G1 F1650 X136.428 Y113.604 E44.94945
M204 S5000
M205 X30 Y30
G0 F5400 X135.896 Y113.57
M204 S500
M205 X20 Y20
G1 F1650 X128.037 Y121.429 E45.31912
M204 S5000
M205 X30 Y30
G0 F5400 X127.472 Y121.429
M204 S500
M205 X20 Y20
G1 F1650 X135.331 Y113.57 E45.68878
M204 S5000
M205 X30 Y30
G0 F5400 X134.765 Y113.57
M204 S500
M205 X20 Y20
G1 F1650 X126.906 Y121.429 E46.05844
M204 S5000
M205 X30 Y30
G0 F5400 X126.34 Y121.429
M204 S500
M205 X20 Y20
G1 F1650 X134.199 Y113.57 E46.42811
M204 S5000
M205 X30 Y30
G0 F5400 X133.633 Y113.57
M204 S500
M205 X20 Y20
G1 F1650 X125.775 Y121.429 E46.79775
M204 S5000
M205 X30 Y30
G0 F5400 X125.209 Y121.429
M204 S500
M205 X20 Y20
G1 F1650 X133.068 Y113.57 E47.16741
M204 S5000
M205 X30 Y30
G0 F5400 X132.502 Y113.57
M204 S500
M205 X20 Y20
G1 F1650 X124.643 Y121.429 E47.53707
M204 S5000
M205 X30 Y30
G0 F5400 X124.078 Y121.429
M204 S500
M205 X20 Y20
G1 F1650 X131.936 Y113.57 E47.90671
M204 S5000
M205 X30 Y30
G0 F5400 X131.371 Y113.57
M204 S500
M205 X20 Y20
G1 F1650 X123.512 Y121.429 E48.27638
M204 S5000
M205 X30 Y30
G0 F5400 X122.946 Y121.429
M204 S500
M205 X20 Y20
G1 F1650 X130.805 Y113.57 E48.64604
M204 S5000
M205 X30 Y30
G0 F5400 X130.239 Y113.57
M204 S500
M205 X20 Y20
G1 F1650 X122.381 Y121.429 E49.01568
M204 S5000
M205 X30 Y30
G0 F5400 X121.815 Y121.429
M204 S500
M205 X20 Y20
G1 F1650 X129.674 Y113.57 E49.38534
M204 S5000
M205 X30 Y30
G0 F5400 X129.108 Y113.57
M204 S500
M205 X20 Y20
G1 F1650 X121.249 Y121.429 E49.75501
M204 S5000
M205 X30 Y30
G0 F5400 X120.684 Y121.429
M204 S500
M205 X20 Y20
G1 F1650 X128.542 Y113.57 E50.12465
M204 S5000
M205 X30 Y30
G0 F5400 X127.977 Y113.57
M204 S500
M205 X20 Y20
G1 F1650 X120.118 Y121.429 E50.49431
M204 S5000
M205 X30 Y30
G0 F5400 X119.552 Y121.429
M204 S500
M205 X20 Y20
G1 F1650 X127.411 Y113.57 E50.86397
M204 S5000
M205 X30 Y30
G0 F5400 X126.845 Y113.57
M204 S500
M205 X20 Y20
G1 F1650 X118.986 Y121.429 E51.23363
M204 S5000
M205 X30 Y30
G0 F5400 X118.421 Y121.429
M204 S500
M205 X20 Y20
G1 F1650 X126.28 Y113.57 E51.6033
M204 S5000
M205 X30 Y30
G0 F5400 X125.714 Y113.57
M204 S500
M205 X20 Y20
G1 F1650 X117.855 Y121.429 E51.97296
M204 S5000
M205 X30 Y30
G0 F5400 X117.289 Y121.429
M204 S500
M205 X20 Y20
G1 F1650 X125.148 Y113.57 E52.34262
M204 S5000
M205 X30 Y30
G0 F5400 X124.583 Y113.57
M204 S500
M205 X20 Y20
G1 F1650 X116.724 Y121.429 E52.71229
M204 S5000
M205 X30 Y30
G0 F5400 X116.158 Y121.429
M204 S500
M205 X20 Y20
G1 F1650 X124.017 Y113.57 E53.08195
M204 S5000
M205 X30 Y30
G0 F5400 X123.451 Y113.57
M204 S500
M205 X20 Y20
G1 F1650 X115.592 Y121.429 E53.45161
M204 S5000
M205 X30 Y30
G0 F5400 X115.027 Y121.429
M204 S500
M205 X20 Y20
G1 F1650 X122.885 Y113.57 E53.82125
M204 S5000
M205 X30 Y30
G0 F5400 X122.32 Y113.57
M204 S500
M205 X20 Y20
G1 F1650 X114.461 Y121.429 E54.19092
M204 S5000
M205 X30 Y30
G0 F5400 X113.895 Y121.429
M204 S500
M205 X20 Y20
G1 F1650 X121.754 Y113.57 E54.56058
M204 S5000
M205 X30 Y30
G0 F5400 X121.188 Y113.57
M204 S500
M205 X20 Y20
G1 F1650 X113.33 Y121.429 E54.93022
M204 S5000
M205 X30 Y30
G0 F5400 X112.764 Y121.429
M204 S500
M205 X20 Y20
G1 F1650 X120.623 Y113.57 E55.29988
M204 S5000
M205 X30 Y30
G0 F5400 X120.057 Y113.57
M204 S500
M205 X20 Y20
G1 F1650 X112.198 Y121.429 E55.66955
M204 S5000
M205 X30 Y30
G0 F5400 X111.633 Y121.429
M204 S500
M205 X20 Y20
