; G-Code generated by Simplify3D(R) Version 4.1.0
; Feb 22, 2019 at 1:22:41 PM
; Settings Summary
;   processName,Process1
;   applyToModels,Stringing Tower 08
;   profileName,Default (modified)
;   profileVersion,2018-11-05 12:15:19
;   baseProfile,Default
;   printMaterial,PLA_Test
;   printQuality,Medium
;   printExtruders,All Extruders
;   extruderName,Extruder 1
;   extruderToolheadNumber,0
;   extruderDiameter,0.4
;   extruderAutoWidth,0
;   extruderWidth,0.4
;   extrusionMultiplier,1
;   extruderUseRetract,1
;   extruderRetractionDistance,3.5
;   extruderExtraRestartDistance,0
;   extruderRetractionZLift,0
;   extruderRetractionSpeed,1800
;   extruderUseCoasting,0
;   extruderCoastingDistance,0.8
;   extruderUseWipe,0
;   extruderWipeDistance,5
;   primaryExtruder,0
;   layerHeight,0.2
;   topSolidLayers,5
;   bottomSolidLayers,5
;   perimeterOutlines,2
;   printPerimetersInsideOut,1
;   startPointOption,3
;   startPointOriginX,0
;   startPointOriginY,0
;   sequentialIslands,0
;   spiralVaseMode,0
;   firstLayerHeightPercentage,120
;   firstLayerWidthPercentage,100
;   firstLayerUnderspeed,0.5
;   useRaft,0
;   raftExtruder,0
;   raftTopLayers,3
;   raftBaseLayers,2
;   raftOffset,3
;   raftSeparationDistance,0.14
;   raftTopInfill,100
;   aboveRaftSpeedMultiplier,0.3
;   useSkirt,1
;   skirtExtruder,0
;   skirtLayers,1
;   skirtOutlines,5
;   skirtOffset,4
;   usePrimePillar,0
;   primePillarExtruder,999
;   primePillarWidth,12
;   primePillarLocation,7
;   primePillarSpeedMultiplier,1
;   useOozeShield,0
;   oozeShieldExtruder,999
;   oozeShieldOffset,2
;   oozeShieldOutlines,1
;   oozeShieldSidewallShape,1
;   oozeShieldSidewallAngle,30
;   oozeShieldSpeedMultiplier,1
;   infillExtruder,0
;   internalInfillPattern,Rectilinear
;   externalInfillPattern,Rectilinear
;   infillPercentage,15
;   outlineOverlapPercentage,15
;   infillExtrusionWidthPercentage,100
;   minInfillLength,5
;   infillLayerInterval,1
;   internalInfillAngles,45,-45
;   overlapInternalInfillAngles,0
;   externalInfillAngles,45,-45
;   generateSupport,0
;   supportExtruder,0
;   supportInfillPercentage,30
;   supportExtraInflation,0
;   supportBaseLayers,0
;   denseSupportExtruder,0
;   denseSupportLayers,0
;   denseSupportInfillPercentage,70
;   supportLayerInterval,1
;   supportHorizontalPartOffset,0.8
;   supportUpperSeparationLayers,1
;   supportLowerSeparationLayers,1
;   supportType,0
;   supportGridSpacing,3
;   maxOverhangAngle,45
;   supportAngles,0
;   temperatureName,Extruder 1,Heated Bed
;   temperatureNumber,0,0
;   temperatureSetpointCount,8,1
;   temperatureSetpointLayers,1,36,61,86,111,136,161,186,1
;   temperatureSetpointTemperatures,215,210,205,200,195,190,185,180,50
;   temperatureStabilizeAtStartup,1,1
;   temperatureHeatedBed,0,1
;   fanLayers,1,5,12
;   fanSpeeds,0,50,100
;   blipFanToFullPower,0
;   adjustSpeedForCooling,1
;   minSpeedLayerTime,15
;   minCoolingSpeedSlowdown,20
;   increaseFanForCooling,0
;   minFanLayerTime,45
;   maxCoolingFanSpeed,100
;   increaseFanForBridging,0
;   bridgingFanSpeed,100
;   use5D,1
;   relativeEdistances,0
;   allowEaxisZeroing,1
;   independentExtruderAxes,0
;   includeM10123,0
;   stickySupport,1
;   applyToolheadOffsets,0
;   gcodeXoffset,0
;   gcodeYoffset,0
;   gcodeZoffset,0
;   overrideMachineDefinition,1
;   machineTypeOverride,0
;   strokeXoverride,330
;   strokeYoverride,330
;   strokeZoverride,330
;   originOffsetXoverride,0
;   originOffsetYoverride,0
;   originOffsetZoverride,0
;   homeXdirOverride,-1
;   homeYdirOverride,-1
;   homeZdirOverride,-1
;   flipXoverride,1
;   flipYoverride,-1
;   flipZoverride,1
;   toolheadOffsets,0,0|0,0|0,0|0,0|0,0|0,0
;   overrideFirmwareConfiguration,1
;   firmwareTypeOverride,RepRap (Marlin/Repetier/Sprinter)
;   GPXconfigOverride,r2
;   baudRateOverride,115200
;   overridePrinterModels,0
;   printerModelsOverride
;   startingGcode,G28 ; home all axes
;   layerChangeGcode,
;   retractionGcode,
;   toolChangeGcode,
;   endingGcode,M104 S0 ; turn off extruder,M140 S0 ; turn off bed,M84 ; disable motors,G28 ; home all axes (X Y and Z),M106 S0; turn off fans
;   exportFileFormat,gcode
;   celebration,0
;   celebrationSong,Random Song
;   postProcessing,
;   defaultSpeed,3000
;   outlineUnderspeed,0.8
;   solidInfillUnderspeed,0.5
;   supportUnderspeed,0.8
;   rapidXYspeed,4800
;   rapidZspeed,1000
;   minBridgingArea,50
;   bridgingExtraInflation,0
;   bridgingExtrusionMultiplier,1
;   bridgingSpeedMultiplier,1
;   useFixedBridgingAngle,0
;   fixedBridgingAngle,0
;   applyBridgingToPerimeters,0
;   filamentDiameters,1.75|1.75|1.75|1.75|1.75|1.75
;   filamentPricesPerKg,46|46|46|46|46|46
;   filamentDensities,1.25|1.25|1.25|1.25|1.25|1.25
;   useMinPrintHeight,0
;   minPrintHeight,0
;   useMaxPrintHeight,0
;   maxPrintHeight,0
;   useDiaphragm,0
;   diaphragmLayerInterval,20
;   robustSlicing,1
;   mergeAllIntoSolid,0
;   onlyRetractWhenCrossingOutline,1
;   retractBetweenLayers,1
;   useRetractionMinTravel,0
;   retractionMinTravel,3
;   retractWhileWiping,0
;   onlyWipeOutlines,1
;   avoidCrossingOutline,1
;   maxMovementDetourFactor,3
;   toolChangeRetractionDistance,2
;   toolChangeExtraRestartDistance,0
;   toolChangeRetractionSpeed,600
;   externalThinWallType,1
;   internalThinWallType,2
;   thinWallAllowedOverlapPercentage,20
;   singleExtrusionMinLength,1
;   singleExtrusionMinPrintingWidthPercentage,50
;   singleExtrusionMaxPrintingWidthPercentage,200
;   singleExtrusionEndpointExtension,0.2
;   horizontalSizeCompensation,-0.1
G90
M82
M106 S0
M140 S50
M190 S50
M104 S215 T0
M109 S215 T0
G28 ; home all axes
; process Process1
; layer 1, Z = 0.240
T0
G92 E0.0000
G1 E-3.5000 F1800
; feature skirt
; tool H0.240 W0.400
G1 Z0.240 F1000
G1 X132.698 Y154.300 F4800
G1 E0.0000 F1800
G92 E0.0000
G1 X197.302 Y154.300 E2.5785 F1500
G1 X200.700 Y157.698 E2.7703
G1 X200.700 Y172.302 E3.3532
G1 X197.302 Y175.700 E3.5450
G1 X132.698 Y175.700 E6.1235
G1 X129.300 Y172.302 E6.3153
G1 X129.300 Y157.698 E6.8982
G1 X132.698 Y154.300 E7.0900
G92 E0.0000
G1 E-3.5000 F1800
G1 X132.863 Y154.700 F4800
G1 E0.0000 F1800
G92 E0.0000
G1 X197.137 Y154.700 E2.5653 F1500
G1 X200.300 Y157.863 E2.7438
G1 X200.300 Y172.137 E3.3135
G1 X197.137 Y175.300 E3.4921
G1 X132.863 Y175.300 E6.0574
G1 X129.700 Y172.137 E6.2359
G1 X129.700 Y157.863 E6.8056
G1 X132.863 Y154.700 E6.9842
G92 E0.0000
G1 E-3.5000 F1800
G1 X133.029 Y155.100 F4800
G1 E0.0000 F1800
G92 E0.0000
G1 X196.971 Y155.100 E2.5521 F1500
G1 X199.900 Y158.029 E2.7174
G1 X199.900 Y171.971 E3.2739
G1 X196.971 Y174.900 E3.4392
G1 X133.029 Y174.900 E5.9912
G1 X130.100 Y171.971 E6.1566
G1 X130.100 Y158.029 E6.7130
G1 X133.029 Y155.100 E6.8783
G92 E0.0000
G1 E-3.5000 F1800
G1 X133.195 Y155.500 F4800
G1 E0.0000 F1800
G92 E0.0000
G1 X196.805 Y155.500 E2.5388 F1500
G1 X199.500 Y158.195 E2.6909
G1 X199.500 Y171.805 E3.2342
G1 X196.805 Y174.500 E3.3863
G1 X133.195 Y174.500 E5.9251
G1 X130.500 Y171.805 E6.0772
G1 X130.500 Y158.195 E6.6204
G1 X133.195 Y155.500 E6.7725
G92 E0.0000
G1 E-3.5000 F1800
G1 X133.360 Y155.900 F4800
G1 E0.0000 F1800
G92 E0.0000
G1 X196.640 Y155.900 E2.5256 F1500
G1 X199.100 Y158.360 E2.6645
G1 X199.100 Y171.640 E3.1945
G1 X196.640 Y174.100 E3.3334
G1 X133.360 Y174.100 E5.8590
G1 X130.900 Y171.640 E5.9979
G1 X130.900 Y158.360 E6.5279
G1 X133.360 Y155.900 E6.6667
G92 E0.0000
G1 E-3.5000 F1800
; feature inner perimeter
G1 X135.300 Y160.300 F4800
G1 X135.505 Y160.300
G1 X135.700 Y160.700
G1 E0.0000 F1800
G92 E0.0000
G1 X194.300 Y160.700 E2.3389 F1350
G1 X194.300 Y169.300 E2.6821
G1 X135.700 Y169.300 E5.0209
G1 X135.700 Y160.700 E5.3642
; feature outer perimeter
G1 X135.300 Y160.300 F4800
G92 E0.0000
G1 X194.700 Y160.300 E2.3708 F1200
G1 X194.700 Y169.700 E2.7460
G1 X135.300 Y169.700 E5.1167
G1 X135.300 Y160.300 E5.4919
; feature solid layer
G1 X136.150 Y168.960 F4800
G92 E0.0000
G1 X136.040 Y168.850 E0.0062 F750
G1 X136.040 Y168.284 E0.0288
G1 X136.716 Y168.960 E0.0670
G1 X137.282 Y168.960 E0.0895
G1 X136.040 Y167.718 E0.1596
G1 X136.040 Y167.153 E0.1822
G1 X137.847 Y168.960 E0.2842
G1 X138.413 Y168.960 E0.3068
G1 X136.040 Y166.587 E0.4407
G1 X136.040 Y166.021 E0.4633
G1 X138.979 Y168.960 E0.6292
G1 X139.544 Y168.960 E0.6518
G1 X136.040 Y165.456 E0.8496
G1 X136.040 Y164.890 E0.8721
G1 X140.110 Y168.960 E1.1019
G1 X140.676 Y168.960 E1.1244
G1 X136.040 Y164.324 E1.3861
G1 X136.040 Y163.759 E1.4087
G1 X141.241 Y168.960 E1.7023
G1 X141.807 Y168.960 E1.7248
G1 X136.040 Y163.193 E2.0504
G1 X136.040 Y162.627 E2.0729
G1 X142.373 Y168.960 E2.4304
G1 X142.938 Y168.960 E2.4530
G1 X136.040 Y162.062 E2.8424
G1 X136.040 Y161.496 E2.8649
G1 X143.504 Y168.960 E3.2862
G1 X144.070 Y168.960 E3.3088
G1 X136.150 Y161.040 E3.7559
G1 X136.716 Y161.040 E3.7784
G1 X144.636 Y168.960 E4.2255
G1 X145.201 Y168.960 E4.2481
G1 X137.281 Y161.040 E4.6951
G1 X137.847 Y161.040 E4.7177
G1 X145.767 Y168.960 E5.1647
G1 X146.333 Y168.960 E5.1873
G1 X138.413 Y161.040 E5.6343
G1 X138.978 Y161.040 E5.6569
G1 X146.898 Y168.960 E6.1039
G1 X147.464 Y168.960 E6.1265
G1 X139.544 Y161.040 E6.5736
G1 X140.110 Y161.040 E6.5961
G1 X148.030 Y168.960 E7.0432
G1 X148.595 Y168.960 E7.0658
G1 X140.675 Y161.040 E7.5128
G1 X141.241 Y161.040 E7.5354
G1 X149.161 Y168.960 E7.9824
G1 X149.727 Y168.960 E8.0050
G1 X141.807 Y161.040 E8.4520
G1 X142.372 Y161.040 E8.4746
G1 X150.292 Y168.960 E8.9216
G1 X150.858 Y168.960 E8.9442
G1 X142.938 Y161.040 E9.3913
G1 X143.504 Y161.040 E9.4138
G1 X151.424 Y168.960 E9.8609
G1 X151.989 Y168.960 E9.8835
G1 X144.069 Y161.040 E10.3305
G1 X144.635 Y161.040 E10.3531
G1 X152.555 Y168.960 E10.8001
G1 X153.121 Y168.960 E10.8227
G1 X145.201 Y161.040 E11.2697
G1 X145.767 Y161.040 E11.2923
G1 X153.687 Y168.960 E11.7393
G1 X154.252 Y168.960 E11.7619
G1 X146.332 Y161.040 E12.2090
G1 X146.898 Y161.040 E12.2315
G1 X154.818 Y168.960 E12.6786
G1 X155.384 Y168.960 E12.7012
G1 X147.464 Y161.040 E13.1482
G1 X148.029 Y161.040 E13.1708
G1 X155.949 Y168.960 E13.6178
G1 X156.515 Y168.960 E13.6404
G1 X148.595 Y161.040 E14.0874
G1 X149.161 Y161.040 E14.1100
G1 X157.081 Y168.960 E14.5570
G1 X157.646 Y168.960 E14.5796
G1 X149.726 Y161.040 E15.0267
G1 X150.292 Y161.040 E15.0492
G1 X158.212 Y168.960 E15.4963
G1 X158.778 Y168.960 E15.5189
G1 X150.858 Y161.040 E15.9659
G1 X151.423 Y161.040 E15.9885
G1 X159.343 Y168.960 E16.4355
G1 X159.909 Y168.960 E16.4581
G1 X151.989 Y161.040 E16.9051
G1 X152.555 Y161.040 E16.9277
G1 X160.475 Y168.960 E17.3747
G1 X161.040 Y168.960 E17.3973
G1 X153.120 Y161.040 E17.8444
G1 X153.686 Y161.040 E17.8669
G1 X161.606 Y168.960 E18.3140
G1 X162.172 Y168.960 E18.3366
G1 X154.252 Y161.040 E18.7836
G1 X154.817 Y161.040 E18.8062
G1 X162.737 Y168.960 E19.2532
G1 X163.303 Y168.960 E19.2758
G1 X155.383 Y161.040 E19.7228
G1 X155.949 Y161.040 E19.7454
G1 X163.869 Y168.960 E20.1924
G1 X164.435 Y168.960 E20.2150
G1 X156.515 Y161.040 E20.6621
G1 X157.080 Y161.040 E20.6846
G1 X165.000 Y168.960 E21.1317
G1 X165.566 Y168.960 E21.1543
G1 X157.646 Y161.040 E21.6013
G1 X158.212 Y161.040 E21.6239
G1 X166.132 Y168.960 E22.0709
G1 X166.697 Y168.960 E22.0935
G1 X158.777 Y161.040 E22.5405
G1 X159.343 Y161.040 E22.5631
G1 X167.263 Y168.960 E23.0101
G1 X167.829 Y168.960 E23.0327
G1 X159.909 Y161.040 E23.4798
G1 X160.474 Y161.040 E23.5023
G1 X168.394 Y168.960 E23.9494
G1 X168.960 Y168.960 E23.9720
G1 X161.040 Y161.040 E24.4190
G1 X161.606 Y161.040 E24.4416
G1 X169.526 Y168.960 E24.8886
G1 X170.091 Y168.960 E24.9112
G1 X162.171 Y161.040 E25.3582
G1 X162.737 Y161.040 E25.3808
G1 X170.657 Y168.960 E25.8278
G1 X171.223 Y168.960 E25.8504
G1 X163.303 Y161.040 E26.2975
G1 X163.868 Y161.040 E26.3200
G1 X171.788 Y168.960 E26.7671
G1 X172.354 Y168.960 E26.7897
G1 X164.434 Y161.040 E27.2367
G1 X165.000 Y161.040 E27.2593
G1 X172.920 Y168.960 E27.7063
G1 X173.485 Y168.960 E27.7289
G1 X165.565 Y161.040 E28.1759
G1 X166.131 Y161.040 E28.1985
G1 X174.051 Y168.960 E28.6455
G1 X174.617 Y168.960 E28.6681
G1 X166.697 Y161.040 E29.1152
G1 X167.263 Y161.040 E29.1377
G1 X175.183 Y168.960 E29.5848
G1 X175.748 Y168.960 E29.6074
G1 X167.828 Y161.040 E30.0544
G1 X168.394 Y161.040 E30.0770
G1 X176.314 Y168.960 E30.5240
G1 X176.880 Y168.960 E30.5466
G1 X168.960 Y161.040 E30.9936
G1 X169.525 Y161.040 E31.0162
G1 X177.445 Y168.960 E31.4632
G1 X178.011 Y168.960 E31.4858
G1 X170.091 Y161.040 E31.9329
G1 X170.657 Y161.040 E31.9554
G1 X178.577 Y168.960 E32.4025
G1 X179.142 Y168.960 E32.4251
G1 X171.222 Y161.040 E32.8721
G1 X171.788 Y161.040 E32.8947
G1 X179.708 Y168.960 E33.3417
G1 X180.274 Y168.960 E33.3643
G1 X172.354 Y161.040 E33.8113
G1 X172.919 Y161.040 E33.8339
G1 X180.839 Y168.960 E34.2809
G1 X181.405 Y168.960 E34.3035
G1 X173.485 Y161.040 E34.7506
G1 X174.051 Y161.040 E34.7731
G1 X181.971 Y168.960 E35.2202
G1 X182.536 Y168.960 E35.2428
G1 X174.616 Y161.040 E35.6898
G1 X175.182 Y161.040 E35.7124
G1 X183.102 Y168.960 E36.1594
G1 X183.668 Y168.960 E36.1820
G1 X175.748 Y161.040 E36.6290
G1 X176.314 Y161.040 E36.6516
G1 X184.234 Y168.960 E37.0986
G1 X184.799 Y168.960 E37.1212
G1 X176.879 Y161.040 E37.5683
G1 X177.445 Y161.040 E37.5908
G1 X185.365 Y168.960 E38.0379
G1 X185.931 Y168.960 E38.0605
G1 X178.011 Y161.040 E38.5075
G1 X178.576 Y161.040 E38.5301
G1 X186.496 Y168.960 E38.9771
G1 X187.062 Y168.960 E38.9997
G1 X179.142 Y161.040 E39.4467
G1 X179.708 Y161.040 E39.4693
G1 X187.628 Y168.960 E39.9163
G1 X188.193 Y168.960 E39.9389
G1 X180.273 Y161.040 E40.3860
G1 X180.839 Y161.040 E40.4085
G1 X188.759 Y168.960 E40.8556
G1 X189.325 Y168.960 E40.8782
G1 X181.405 Y161.040 E41.3252
G1 X181.970 Y161.040 E41.3478
G1 X189.890 Y168.960 E41.7948
G1 X190.456 Y168.960 E41.8174
G1 X182.536 Y161.040 E42.2644
G1 X183.102 Y161.040 E42.2870
G1 X191.022 Y168.960 E42.7340
G1 X191.587 Y168.960 E42.7566
G1 X183.667 Y161.040 E43.2037
G1 X184.233 Y161.040 E43.2262
G1 X192.153 Y168.960 E43.6733
G1 X192.719 Y168.960 E43.6959
G1 X184.799 Y161.040 E44.1429
G1 X185.364 Y161.040 E44.1655
G1 X193.284 Y168.960 E44.6125
G1 X193.850 Y168.960 E44.6351
G1 X185.930 Y161.040 E45.0821
G1 X186.496 Y161.040 E45.1047
G1 X193.960 Y168.504 E45.5260
G1 X193.960 Y167.938 E45.5486
G1 X187.062 Y161.040 E45.9380
G1 X187.627 Y161.040 E45.9606
G1 X193.960 Y167.373 E46.3180
G1 X193.960 Y166.807 E46.3406
G1 X188.193 Y161.040 E46.6661
G1 X188.759 Y161.040 E46.6887
G1 X193.960 Y166.241 E46.9823
G1 X193.960 Y165.676 E47.0048
G1 X189.324 Y161.040 E47.2665
G1 X189.890 Y161.040 E47.2891
G1 X193.960 Y165.110 E47.5188
G1 X193.960 Y164.544 E47.5414
G1 X190.456 Y161.040 E47.7392
G1 X191.021 Y161.040 E47.7618
G1 X193.960 Y163.979 E47.9276
G1 X193.960 Y163.413 E47.9502
G1 X191.587 Y161.040 E48.0842
G1 X192.153 Y161.040 E48.1067
G1 X193.960 Y162.847 E48.2087
G1 X193.960 Y162.282 E48.2313
G1 X192.718 Y161.040 E48.3014
G1 X193.284 Y161.040 E48.3240
G1 X193.960 Y161.716 E48.3621
G1 X193.960 Y161.150 E48.3847
G1 X193.850 Y161.040 E48.3909
G92 E0.0000
G1 E-3.5000 F1800
; layer 2, Z = 0.440
; feature inner perimeter
; tool H0.200 W0.400
G1 Z0.440 F1000
G1 X135.700 Y160.700 F4800
G1 E0.0000 F1800
G92 E0.0000
G1 X194.300 Y160.700 E1.9490 F2700
G1 X194.300 Y169.300 E2.2351
G1 X135.700 Y169.300 E4.1841
G1 X135.700 Y160.700 E4.4702
; feature outer perimeter
G1 X135.300 Y160.300 F4800
G92 E0.0000
G1 X194.700 Y160.300 E1.9757 F2400
G1 X194.700 Y169.700 E2.2883
G1 X135.300 Y169.700 E4.2639
G1 X135.300 Y160.300 E4.5766
; feature solid layer
G1 X136.040 Y161.150 F4800
G92 E0.0000
G1 X136.150 Y161.040 E0.0052 F1500
G1 X136.716 Y161.040 E0.0240
G1 X136.040 Y161.716 E0.0558
G1 X136.040 Y162.282 E0.0746
G1 X137.282 Y161.040 E0.1330
G1 X137.847 Y161.040 E0.1518
G1 X136.040 Y162.847 E0.2368
G1 X136.040 Y163.413 E0.2557
G1 X138.413 Y161.040 E0.3673
G1 X138.979 Y161.040 E0.3861
G1 X136.040 Y163.979 E0.5243
G1 X136.040 Y164.544 E0.5431
G1 X139.544 Y161.040 E0.7080
G1 X140.110 Y161.040 E0.7268
G1 X136.040 Y165.110 E0.9182
G1 X136.040 Y165.676 E0.9370
G1 X140.676 Y161.040 E1.1551
G1 X141.241 Y161.040 E1.1739
G1 X136.040 Y166.241 E1.4186
G1 X136.040 Y166.807 E1.4374
G1 X141.807 Y161.040 E1.7087
G1 X142.373 Y161.040 E1.7275
G1 X136.040 Y167.373 E2.0253
