;FLAVOR:Marlin
;TIME:3538
;Filament used: 1.99641m
;Layer height: 0.2
;MINX:51.011
;MINY:85.958
;MINZ:0.2
;MAXX:168.986
;MAXY:134.038
;MAXZ:4
;Generated with Cura_SteamEngine 4.10.0
M140 S50
M105
M190 S50
M104 S200
M105
M109 S200
M82 ;absolute extrusion mode
; Ender 3 Custom Start G-code
G92 E0 ; Reset Extruder
G28 ; Home all axes
G1 Z2.0 F3000 ; Move Z Axis up little to prevent scratching of Heat Bed
G1 X0.1 Y20 Z0.3 F5000.0 ; Move to start position
G1 X0.1 Y200.0 Z0.3 F1500.0 E15 ; Draw the first line
G1 X0.4 Y200.0 Z0.3 F5000.0 ; Move to side a little
G1 X0.4 Y20 Z0.3 F1500.0 E30 ; Draw the second line
G92 E0 ; Reset Extruder
G1 Z2.0 F3000 ; Move Z Axis up little to prevent scratching of Heat Bed
G1 X5 Y20 Z0.3 F5000.0 ; Move over to prevent blob squish
G92 E0
G92 E0
G1 F2700 E-5
;LAYER_COUNT:20
;LAYER:0
M107
G0 F6000 X60.652 Y92.343 Z0.2
;TYPE:SKIRT
G1 F2700 E0
G1 F1200 X61.088 Y92.074 E0.01704
G1 X61.433 Y91.872 E0.03034
G1 X61.662 Y91.742 E0.03909
G1 X62.22 Y91.433 E0.06031
G1 X63.033 Y91.026 E0.09055
G1 X63.475 Y90.827 E0.10667
G1 X63.772 Y90.698 E0.11744
G1 X64.345 Y90.46 E0.13808
G1 X65.193 Y90.148 E0.16813
G1 X65.69 Y89.988 E0.1855
G1 X66.006 Y89.892 E0.19648
G1 X66.549 Y89.735 E0.21528
G1 X67.092 Y89.593 E0.23395
G1 X67.508 Y89.501 E0.24812
G1 X67.924 Y89.417 E0.26223
G1 X68.201 Y89.364 E0.27161
G1 X68.794 Y89.26 E0.29164
G1 X69.687 Y89.141 E0.3216
G1 X70.198 Y89.094 E0.33867
G1 X70.534 Y89.068 E0.34988
G1 X71.123 Y89.032 E0.36951
G1 X71.989 Y89.014 E0.39832
G1 X72.496 Y89.023 E0.41518
G1 X72.856 Y89.035 E0.42716
G1 X73.47 Y89.066 E0.44761
G1 X74.374 Y89.149 E0.4778
G1 X74.897 Y89.219 E0.49535
G1 X75.187 Y89.262 E0.5051
G1 X75.752 Y89.353 E0.52414
G1 X76.371 Y89.471 E0.5451
G1 X77.331 Y89.683 E0.5778
G1 X78.466 Y89.949 E0.61657
G1 X80.873 Y90.44 E0.69827
G1 X83.376 Y90.878 E0.78279
G1 X85.882 Y91.243 E0.86702
G1 X88.362 Y91.533 E0.95007
G1 X90.877 Y91.756 E1.03404
G1 X93.389 Y91.906 E1.11774
G1 X95.895 Y91.986 E1.20113
G1 X97.56 Y92 E1.25651
G1 X109.471 Y91.999 E1.65268
G1 X112.08 Y91.962 E1.73946
G1 X114.602 Y91.855 E1.82342
G1 X117.084 Y91.679 E1.90618
G1 X119.585 Y91.43 E1.98977
G1 X122.129 Y91.104 E2.07508
G1 X124.564 Y90.722 E2.15706
G1 X127.075 Y90.255 E2.242
G1 X129.53 Y89.726 E2.32553
G1 X131.933 Y89.137 E2.40782
G1 X134.395 Y88.459 E2.49276
G1 X136.829 Y87.714 E2.57742
G1 X138.108 Y87.285 E2.62229
G1 X138.583 Y87.13 E2.63891
G1 X139.09 Y86.971 E2.65658
G1 X139.753 Y86.786 E2.67947
G1 X140.659 Y86.563 E2.71051
G1 X141 Y86.485 E2.72214
G1 X141.301 Y86.421 E2.73238
G1 X141.996 Y86.296 E2.75586
G1 X142.946 Y86.157 E2.7878
G1 X143.316 Y86.109 E2.80021
G1 X143.611 Y86.076 E2.81008
G1 X144.285 Y86.022 E2.83257
G1 X145.205 Y85.976 E2.86321
G1 X145.549 Y85.964 E2.87465
G1 X145.871 Y85.958 E2.88537
G1 X146.579 Y85.968 E2.90892
G1 X147.518 Y86.011 E2.94018
G1 X147.911 Y86.036 E2.95328
G1 X148.217 Y86.061 E2.96349
G1 X148.859 Y86.132 E2.98497
G1 X149.815 Y86.267 E3.01708
G1 X150.178 Y86.324 E3.02931
G1 X150.463 Y86.374 E3.03893
G1 X151.146 Y86.517 E3.06214
G1 X152.048 Y86.735 E3.093
G1 X152.437 Y86.836 E3.10637
G1 X152.722 Y86.916 E3.11622
G1 X153.331 Y87.107 E3.13744
G1 X154.26 Y87.427 E3.17012
G1 X154.611 Y87.554 E3.18254
G1 X154.88 Y87.657 E3.19212
G1 X155.514 Y87.923 E3.21499
G1 X156.362 Y88.31 E3.24599
G1 X156.686 Y88.464 E3.25792
G1 X156.962 Y88.601 E3.26817
G1 X157.581 Y88.934 E3.29155
G1 X158.393 Y89.404 E3.32275
G1 X158.692 Y89.583 E3.33434
G1 X158.967 Y89.754 E3.34512
G1 X159.547 Y90.141 E3.36831
G1 X160.28 Y90.664 E3.39826
G1 X160.573 Y90.88 E3.41036
G1 X160.845 Y91.088 E3.42175
G1 X161.374 Y91.519 E3.44445
G1 X162.071 Y92.124 E3.47514
G1 X162.355 Y92.38 E3.48786
G1 X162.601 Y92.609 E3.49904
G1 X163.076 Y93.078 E3.52124
G1 X163.701 Y93.735 E3.5514
G1 X163.966 Y94.025 E3.56447
G1 X164.167 Y94.252 E3.57455
G1 X164.594 Y94.764 E3.59673
G1 X165.199 Y95.537 E3.62937
G1 X165.422 Y95.832 E3.64167
G1 X165.603 Y96.08 E3.65189
G1 X165.988 Y96.643 E3.67457
G1 X166.469 Y97.396 E3.70429
G1 X166.671 Y97.726 E3.71716
G1 X166.831 Y97.997 E3.72763
G1 X167.151 Y98.577 E3.74966
G1 X167.604 Y99.462 E3.78272
G1 X167.76 Y99.78 E3.79451
G1 X167.936 Y100.153 E3.80822
G1 X168.3 Y101.017 E3.83941
G1 X168.589 Y101.91 E3.87062
G1 X168.728 Y102.47 E3.88982
G1 X168.892 Y103.393 E3.921
G1 X168.977 Y104.327 E3.95219
G1 X168.98 Y105.317 E3.98512
G1 X168.943 Y106.204 E4.01464
G1 X168.87 Y108.838 E4.10228
G1 X168.872 Y111.364 E4.1863
G1 X168.944 Y113.866 E4.26955
G1 X168.97 Y114.364 E4.28614
G1 X168.986 Y114.851 E4.30234
G1 X168.971 Y115.789 E4.33355
G1 X168.877 Y116.722 E4.36473
G1 X168.703 Y117.643 E4.39591
G1 X168.452 Y118.547 E4.42711
G1 X168.01 Y119.686 E4.46775
G1 X167.788 Y120.17 E4.48546
G1 X167.578 Y120.604 E4.5015
G1 X167.344 Y121.069 E4.51881
G1 X167.012 Y121.679 E4.54191
G1 X166.527 Y122.508 E4.57385
G1 X166.325 Y122.84 E4.58678
G1 X166.159 Y123.102 E4.59709
G1 X165.787 Y123.652 E4.61918
G1 X165.258 Y124.385 E4.64924
G1 X165.051 Y124.663 E4.66077
G1 X164.846 Y124.929 E4.67194
G1 X164.398 Y125.473 E4.69538
G1 X163.785 Y126.171 E4.72628
G1 X163.509 Y126.474 E4.73991
G1 X163.279 Y126.717 E4.75104
G1 X162.832 Y127.162 E4.77202
G1 X162.161 Y127.794 E4.80268
G1 X161.847 Y128.079 E4.81678
G1 X161.621 Y128.276 E4.82675
G1 X161.138 Y128.674 E4.84757
G1 X160.383 Y129.26 E4.87936
G1 X160.055 Y129.504 E4.89295
G1 X159.803 Y129.685 E4.90327
G1 X159.265 Y130.048 E4.92486
G1 X158.498 Y130.533 E4.95504
G1 X158.15 Y130.745 E4.96859
G1 X157.856 Y130.916 E4.97991
G1 X157.282 Y131.227 E5.00162
G1 X156.452 Y131.646 E5.03254
G1 X156.125 Y131.804 E5.04462
G1 X155.847 Y131.933 E5.05482
G1 X155.215 Y132.203 E5.07767
G1 X154.318 Y132.553 E5.1097
G1 X154.027 Y132.661 E5.12002
G1 X153.77 Y132.753 E5.1291
G1 X153.044 Y132.985 E5.15445
G1 X152.117 Y133.246 E5.18648
G1 X151.804 Y133.33 E5.19726
G1 X151.504 Y133.405 E5.20755
G1 X150.793 Y133.557 E5.23173
G1 X149.886 Y133.721 E5.26239
G1 X149.54 Y133.778 E5.27405
G1 X149.236 Y133.823 E5.28427
G1 X148.556 Y133.903 E5.30704
G1 X147.591 Y133.985 E5.33925
G1 X147.219 Y134.01 E5.35166
G1 X146.924 Y134.025 E5.36148
G1 X146.246 Y134.038 E5.38403
G1 X145.322 Y134.028 E5.41477
G1 X144.926 Y134.017 E5.42794
G1 X144.606 Y134.002 E5.4386
G1 X143.96 Y133.953 E5.46015
G1 X143.018 Y133.853 E5.49165
G1 X142.618 Y133.803 E5.50506
G1 X142.332 Y133.762 E5.51467
G1 X141.691 Y133.65 E5.53631
G1 X140.771 Y133.462 E5.56755
G1 X140.369 Y133.372 E5.58125
G1 X140.053 Y133.295 E5.59207
G1 X139.438 Y133.127 E5.61327
G1 X138.402 Y132.81 E5.6493
G1 X137.905 Y132.649 E5.66668
G1 X136.135 Y132.069 E5.72863
G1 X133.752 Y131.358 E5.81134
G1 X131.33 Y130.71 E5.89473
G1 X128.838 Y130.118 E5.97992
G1 X126.411 Y129.616 E6.06235
G1 X123.911 Y129.169 E6.14682
G1 X121.432 Y128.799 E6.23019
G1 X118.95 Y128.5 E6.31334
G1 X116.423 Y128.268 E6.39774
G1 X113.905 Y128.108 E6.48166
G1 X111.375 Y128.02 E6.56586
G1 X109.511 Y128 E6.62786
G1 X97.524 Y128.001 E7.02654
G1 X94.915 Y128.038 E7.11333
G1 X92.393 Y128.145 E7.19729
G1 X89.911 Y128.321 E7.28005
G1 X87.41 Y128.57 E7.36364
G1 X84.866 Y128.896 E7.44895
G1 X82.431 Y129.278 E7.53093
G1 X79.92 Y129.745 E7.61587
G1 X77.422 Y130.283 E7.70086
G1 X76.697 Y130.456 E7.72565
G1 X76.36 Y130.531 E7.73714
G1 X76.136 Y130.577 E7.74474
G1 X75.675 Y130.662 E7.76033
G1 X75.241 Y130.732 E7.77495
G1 X74.928 Y130.778 E7.78548
G1 X74.367 Y130.852 E7.8043
G1 X73.982 Y130.896 E7.81719
G1 X73.393 Y130.94 E7.83683
G1 X72.89 Y130.964 E7.85358
G1 X72.579 Y130.974 E7.86393
G1 X72.01 Y130.985 E7.88286
G1 X71.48 Y130.982 E7.90049
G1 X70.993 Y130.962 E7.9167
G1 X70.601 Y130.937 E7.92976
G1 X70.302 Y130.914 E7.93974
G1 X69.688 Y130.858 E7.96024
G1 X69.157 Y130.796 E7.97802
G1 X68.731 Y130.73 E7.99236
G1 X68.255 Y130.646 E8.00844
G1 X67.981 Y130.594 E8.01771
G1 X67.409 Y130.478 E8.03713
G1 X66.527 Y130.261 E8.06734
G1 X66.038 Y130.119 E8.08427
G1 X65.743 Y130.028 E8.09454
G1 X65.198 Y129.853 E8.11358
G1 X64.665 Y129.667 E8.13235
G1 X64.256 Y129.505 E8.14699
G1 X63.813 Y129.32 E8.16295
G1 X63.519 Y129.193 E8.1736
G1 X63.006 Y128.961 E8.19233
G1 X62.42 Y128.674 E8.21403
G1 X62.124 Y128.516 E8.22519
G1 X61.78 Y128.326 E8.23826
G1 X61.5 Y128.166 E8.24899
G1 X61.001 Y127.871 E8.26827
G1 X60.605 Y127.626 E8.28376
G1 X60.165 Y127.329 E8.30141
G1 X59.787 Y127.061 E8.31683
G1 X59.535 Y126.877 E8.3272
G1 X59.038 Y126.503 E8.34789
G1 X58.338 Y125.93 E8.37798
G1 X58.001 Y125.63 E8.39299
G1 X57.782 Y125.429 E8.40287
G1 X57.333 Y125.007 E8.42337
G1 X56.889 Y124.566 E8.44418
G1 X56.591 Y124.246 E8.45872
G1 X56.36 Y123.989 E8.47022
G1 X56.165 Y123.767 E8.48005
G1 X55.747 Y123.276 E8.50149
G1 X55.176 Y122.545 E8.53234
G1 X54.877 Y122.127 E8.54944
G1 X54.717 Y121.897 E8.55876
G1 X54.383 Y121.404 E8.57856
G1 X53.884 Y120.594 E8.61021
G1 X53.629 Y120.137 E8.62761
G1 X53.505 Y119.908 E8.63627
G1 X53.235 Y119.396 E8.65552
G1 X52.83 Y118.54 E8.68702
G1 X52.652 Y118.118 E8.70225
G1 X52.55 Y117.867 E8.71127
G1 X52.311 Y117.259 E8.73299
G1 X52.013 Y116.398 E8.7633
G1 X51.874 Y115.935 E8.77938
G1 X51.781 Y115.608 E8.79068
G1 X51.619 Y115.001 E8.81158
G1 X51.422 Y114.117 E8.8417
G1 X51.332 Y113.618 E8.85857
G1 X51.285 Y113.342 E8.86788
G1 X51.201 Y112.797 E8.88622
G1 X51.123 Y112.169 E8.90727
G1 X51.09 Y111.782 E8.92019
G1 X51.06 Y111.346 E8.93472
G1 X51.043 Y111.037 E8.94501
G1 X51.019 Y110.445 E8.96472
G1 X51.011 Y109.835 E8.98501
G1 X51.02 Y109.475 E8.99699
G1 X51.038 Y109.042 E9.0114
G1 X51.056 Y108.725 E9.02196
G1 X51.1 Y108.101 E9.04277
G1 X51.2 Y107.208 E9.07266
G1 X51.271 Y106.745 E9.08824
G1 X51.322 Y106.44 E9.09852
G1 X51.433 Y105.831 E9.11911
G1 X51.629 Y104.96 E9.1488
G1 X51.77 Y104.433 E9.16695
G1 X51.861 Y104.112 E9.17805
G1 X52.028 Y103.556 E9.19735
G1 X52.338 Y102.664 E9.22876
G1 X52.53 Y102.18 E9.24608
G1 X52.631 Y101.933 E9.25496
G1 X52.852 Y101.413 E9.27375
G1 X53.103 Y100.866 E9.29377
G1 X53.27 Y100.536 E9.30607
G1 X53.47 Y100.156 E9.32035
G1 X53.626 Y99.869 E9.33122
G1 X53.944 Y99.306 E9.35272
G1 X54.417 Y98.544 E9.38255
G1 X54.678 Y98.159 E9.39802
G1 X54.843 Y97.922 E9.40763
G1 X55.19 Y97.438 E9.42743
G1 X55.523 Y96.997 E9.44581
G1 X55.816 Y96.641 E9.46115
G1 X56.127 Y96.278 E9.47705
G1 X56.316 Y96.063 E9.48657
G1 X56.698 Y95.64 E9.50553
G1 X57.132 Y95.186 E9.52642
G1 X57.4 Y94.926 E9.53883
G1 X57.694 Y94.649 E9.55227
G1 X57.941 Y94.423 E9.5634
G1 X58.381 Y94.033 E9.58296
G1 X59.07 Y93.47 E9.61255
G1 X59.488 Y93.156 E9.62994
G1 X59.753 Y92.963 E9.64085
G1 X60.232 Y92.625 E9.66034
G1 X60.652 Y92.343 E9.67717
G0 F6000 X60.867 Y92.68
G1 F1200 X60.939 Y92.634 E9.68001
G1 X61.29 Y92.42 E9.69369
G1 X61.635 Y92.218 E9.70698
G1 X61.856 Y92.092 E9.71544
G1 X62.414 Y91.783 E9.73666
G1 X63.197 Y91.39 E9.7658
G1 X63.639 Y91.191 E9.78192
G1 X63.925 Y91.068 E9.79227
G1 X64.498 Y90.83 E9.81291
G1 X65.316 Y90.529 E9.8419
G1 X65.813 Y90.369 E9.85927
G1 X66.117 Y90.276 E9.86984
G1 X66.66 Y90.119 E9.88864
G1 X67.183 Y89.982 E9.90662
G1 X67.587 Y89.893 E9.92038
G1 X68.003 Y89.809 E9.9345
G1 X68.27 Y89.758 E9.94354
G1 X68.863 Y89.654 E9.96356
G1 X69.723 Y89.54 E9.99242
G1 X70.234 Y89.493 E10.00948
G1 X70.558 Y89.468 E10.02029
G1 X71.147 Y89.432 E10.03992
G1 X71.982 Y89.414 E10.0677
G1 X72.489 Y89.423 E10.08456
G1 X72.835 Y89.434 E10.09608
G1 X73.449 Y89.465 E10.11653
G1 X74.321 Y89.546 E10.14565
G1 X74.844 Y89.616 E10.1632
G1 X75.124 Y89.657 E10.17262
G1 X75.689 Y89.748 E10.19165
G1 X76.285 Y89.862 E10.21183
G1 X77.239 Y90.073 E10.24433
G1 X78.325 Y90.327 E10.28142
G1 X80.823 Y90.837 E10.36622
G1 X83.321 Y91.274 E10.45057
G1 X85.819 Y91.638 E10.53453
G1 X88.313 Y91.93 E10.61805
G1 X90.853 Y92.155 E10.70286
G1 X93.353 Y92.304 E10.78616
G1 X95.922 Y92.386 E10.87164
G1 X97.556 Y92.4 E10.92599
G1 X109.477 Y92.399 E11.32249
G1 X112.102 Y92.362 E11.4098
G1 X114.611 Y92.255 E11.49333
G1 X117.115 Y92.078 E11.57682
G1 X119.642 Y91.826 E11.66129
G1 X122.17 Y91.502 E11.74606
G1 X124.661 Y91.112 E11.82992
G1 X127.127 Y90.653 E11.91334
G1 X129.603 Y90.119 E11.99759
G1 X132.062 Y89.517 E12.08179
G1 X134.513 Y88.842 E12.16635
G1 X136.923 Y88.104 E12.25018
G1 X138.233 Y87.665 E12.29613
G1 X138.703 Y87.512 E12.31257
G1 X139.21 Y87.353 E12.33024
G1 X139.849 Y87.174 E12.35231
G1 X140.755 Y86.951 E12.38335
G1 X141.083 Y86.876 E12.39454
G1 X141.384 Y86.812 E12.40477
G1 X142.054 Y86.692 E12.42741
G1 X143.004 Y86.553 E12.45935
G1 X143.361 Y86.507 E12.47132
G1 X143.656 Y86.474 E12.48119
G1 X144.305 Y86.421 E12.50285
G1 X145.225 Y86.375 E12.53349
G1 X145.557 Y86.364 E12.54453
G1 X145.879 Y86.358 E12.55525
G1 X146.561 Y86.367 E12.57793
G1 X147.5 Y86.41 E12.60919
G1 X147.878 Y86.434 E12.62179
G1 X148.184 Y86.459 E12.632
G1 X148.803 Y86.528 E12.65272
G1 X149.759 Y86.663 E12.68483
G1 X150.109 Y86.718 E12.69662
G1 X150.394 Y86.768 E12.70624
G1 X151.052 Y86.906 E12.7286
G1 X151.954 Y87.124 E12.75947
G1 X152.329 Y87.221 E12.77235
G1 X152.614 Y87.301 E12.78219
G1 X153.201 Y87.485 E12.80265
G1 X154.13 Y87.805 E12.83533
G1 X154.468 Y87.928 E12.8473
G1 X154.737 Y88.031 E12.85688
G1 X155.348 Y88.287 E12.87891
G1 X156.196 Y88.674 E12.90991
G1 X156.508 Y88.822 E12.9214
G1 X156.784 Y88.959 E12.93165
G1 X157.381 Y89.28 E12.95419
G1 X158.193 Y89.75 E12.9854
G1 X158.48 Y89.922 E12.99653
G1 X158.755 Y90.093 E13.0073
G1 X159.315 Y90.466 E13.02968
G1 X160.048 Y90.989 E13.05963
G1 X160.33 Y91.198 E13.0713
G1 X160.602 Y91.406 E13.08269
G1 X161.111 Y91.821 E13.10453
G1 X161.808 Y92.426 E13.13523
G1 X162.082 Y92.672 E13.14748
G1 X162.328 Y92.901 E13.15866
G1 X162.786 Y93.354 E13.18008
G1 X163.411 Y94.011 E13.21024
G1 X163.667 Y94.29 E13.22284
G1 X163.868 Y94.517 E13.23292
G1 X164.279 Y95.011 E13.25429
G1 X164.884 Y95.784 E13.28694
G1 X165.099 Y96.068 E13.29879
G1 X165.28 Y96.316 E13.309
G1 X165.651 Y96.859 E13.33087
G1 X166.132 Y97.612 E13.36059
G1 X166.327 Y97.929 E13.37297
G1 X166.487 Y98.2 E13.38344
G1 X166.795 Y98.759 E13.40467
G1 X167.248 Y99.644 E13.43773
G1 X167.398 Y99.951 E13.4491
G1 X167.574 Y100.324 E13.46282
G1 X167.931 Y101.173 E13.49345
G1 X168.212 Y102.049 E13.52405
G1 X168.338 Y102.557 E13.54145
G1 X168.498 Y103.463 E13.57205
G1 X168.579 Y104.38 E13.60267
G1 X168.581 Y105.3 E13.63327
G1 X168.541 Y106.245 E13.66473
G1 X168.47 Y108.827 E13.75064
G1 X168.472 Y111.341 E13.83426
G1 X168.547 Y113.941 E13.92077
G1 X168.57 Y114.384 E13.93552
G1 X168.58 Y114.64 E13.94404
G1 X168.586 Y114.862 E13.95143
G1 X168.571 Y115.782 E13.98203
G1 X168.476 Y116.698 E14.01266
G1 X168.302 Y117.602 E14.04328
G1 X168.05 Y118.487 E14.07389
G1 X167.646 Y119.521 E14.11081
G1 X167.526 Y119.786 E14.12049
G1 X167.309 Y120.243 E14.13731
G1 X167.221 Y120.424 E14.14401
G1 X166.987 Y120.889 E14.16132
G1 X166.667 Y121.477 E14.18359
G1 X166.182 Y122.306 E14.21553
G1 X165.987 Y122.626 E14.228
G1 X165.821 Y122.888 E14.23831
G1 X165.462 Y123.418 E14.2596
G1 X164.933 Y124.151 E14.28967
G1 X164.734 Y124.419 E14.30077
G1 X164.529 Y124.685 E14.31194
G1 X164.098 Y125.209 E14.33451
G1 X163.485 Y125.907 E14.3654
G1 X163.218 Y126.199 E14.37856
G1 X162.988 Y126.442 E14.38969
G1 X162.558 Y126.871 E14.40989
G1 X161.887 Y127.503 E14.44055
G1 X161.584 Y127.777 E14.45414
G1 X161.358 Y127.974 E14.46411
G1 X160.892 Y128.358 E14.4842
G1 X160.137 Y128.944 E14.51598
G1 X159.822 Y129.179 E14.52905
G1 X159.57 Y129.36 E14.53937
G1 X159.051 Y129.71 E14.56019
G1 X158.284 Y130.195 E14.59038
G1 X157.948 Y130.399 E14.60345
G1 X157.654 Y130.57 E14.61476
G1 X157.102 Y130.87 E14.63566
G1 X156.272 Y131.289 E14.66658
G1 X155.957 Y131.441 E14.67822
G1 X155.679 Y131.57 E14.68841
G1 X155.07 Y131.83 E14.71043
G1 X154.173 Y132.18 E14.74246
G1 X153.893 Y132.285 E14.7524
G1 X153.636 Y132.377 E14.76148
G1 X152.936 Y132.6 E14.78592
G1 X152.009 Y132.861 E14.81795
G1 X151.707 Y132.942 E14.82835
G1 X151.407 Y133.017 E14.83863
G1 X150.722 Y133.164 E14.86194
G1 X149.815 Y133.328 E14.89259
G1 X149.481 Y133.383 E14.90385
G1 X149.177 Y133.428 E14.91407
G1 X148.522 Y133.504 E14.936
G1 X147.557 Y133.586 E14.96822
G1 X147.198 Y133.61 E14.98018
G1 X146.903 Y133.625 E14.99001
G1 X146.25 Y133.638 E15.01173
G1 X145.326 Y133.628 E15.04246
G1 X144.945 Y133.617 E15.05514
G1 X144.625 Y133.602 E15.0658
G1 X144.002 Y133.555 E15.08658
G1 X143.06 Y133.455 E15.11808
